;FLAVOR:Marlin
;TIME:6965
;Filament used: 1.30828m
;Layer height: 0.16
;MINX:101.733
;MINY:94.85
;MINZ:0.2
;MAXX:133.266
;MAXY:140.15
;MAXZ:9.88
;Generated with Cura_SteamEngine 4.8.0
M140 S75
M105
M190 S75
M104 S240
M105
M109 S240
M82 ;absolute extrusion mode
; Ender 3 Custom Start G-code
G92 E0 ; Reset Extruder
G28 ; Home all axes
G1 Z2.0 F3000 ; Move Z Axis up little to prevent scratching of Heat Bed
G1 X5 Y20 Z0.3 F5000.0 ; Move over to prevent blob squish
G92 E0
G92 E0
G1 F2400 E-6
;LAYER_COUNT:52
;LAYER:0
M107
G0 F3000 X102.876 Y96.168 Z0.2
;TYPE:SKIRT
G1 F2400 E0
;FLOW_RATE_COMPENSATED_OFFSET = 1.875000
G1 F600 X103.052 Y95.992 E1.8944
G1 X103.474 Y95.627 E1.9379
G1 X103.944 Y95.325 E1.98145
G1 X104.452 Y95.094 E2.02495
G1 X104.988 Y94.938 E2.06847
G1 X105.81 Y94.85 E2.13291
G1 X129.19 Y94.85 E3.95546
G1 X129.747 Y94.89 E3.99899
G1 X130.292 Y95.009 E4.04248
G1 X130.815 Y95.205 E4.08602
G1 X131.304 Y95.473 E4.12949
G1 X131.948 Y95.992 E4.19396
G1 X132.124 Y96.168 E4.21336
G1 X132.489 Y96.59 E4.25686
G1 X132.791 Y97.06 E4.30041
G1 X133.022 Y97.568 E4.34391
G1 X133.178 Y98.104 E4.38743
G1 X133.266 Y98.926 E4.45187
G1 X133.266 Y136.074 E7.34769
G1 X133.226 Y136.631 E7.39122
G1 X133.107 Y137.176 E7.4347
G1 X132.911 Y137.699 E7.47824
G1 X132.643 Y138.188 E7.52171
G1 X132.124 Y138.832 E7.58619
G1 X131.948 Y139.008 E7.60559
G1 X131.526 Y139.373 E7.64908
G1 X131.056 Y139.675 E7.69263
G1 X130.548 Y139.906 E7.73613
G1 X130.012 Y140.062 E7.77965
G1 X129.19 Y140.15 E7.84409
G1 X105.809 Y140.15 E9.66672
G1 X105.252 Y140.11 E9.71026
G1 X104.707 Y139.991 E9.75374
G1 X104.184 Y139.795 E9.79728
G1 X103.695 Y139.527 E9.84075
G1 X103.051 Y139.008 E9.90522
G1 X102.875 Y138.832 E9.92463
G1 X102.51 Y138.41 E9.96812
G1 X102.208 Y137.94 E10.01167
G1 X101.977 Y137.432 E10.05517
G1 X101.821 Y136.896 E10.09869
G1 X101.733 Y136.074 E10.16313
G1 X101.734 Y98.926 E13.05895
G1 X101.774 Y98.369 E13.10248
G1 X101.893 Y97.824 E13.14597
G1 X102.089 Y97.301 E13.1895
G1 X102.357 Y96.811 E13.23304
G1 X102.876 Y96.168 E13.29746
G0 F3000 X103.301 Y96.593 E13.29746
G1 F600 X103.477 Y96.417 E13.31686
G1 X103.867 Y96.083 E13.35689
G1 X104.304 Y95.814 E13.39689
G1 X104.778 Y95.616 E13.43693
G1 X105.276 Y95.493 E13.47692
G1 X105.81 Y95.45 E13.51868
G1 X129.19 Y95.45 E15.34123
G1 X129.702 Y95.49 E15.38127
G1 X130.201 Y95.609 E15.42126
G1 X130.676 Y95.804 E15.46128
G1 X131.115 Y96.07 E15.5013
G1 X131.523 Y96.417 E15.54305
G1 X131.699 Y96.593 E15.56245
G1 X132.033 Y96.983 E15.60248
G1 X132.302 Y97.42 E15.64248
G1 X132.5 Y97.894 E15.68253
G1 X132.623 Y98.392 E15.72251
G1 X132.666 Y98.926 E15.76427
G1 X132.666 Y136.074 E18.66009
G1 X132.626 Y136.586 E18.70012
G1 X132.507 Y137.085 E18.74011
G1 X132.312 Y137.56 E18.78014
G1 X132.046 Y137.999 E18.82015
G1 X131.699 Y138.407 E18.8619
G1 X131.523 Y138.583 E18.88131
G1 X131.133 Y138.917 E18.92133
G1 X130.696 Y139.186 E18.96134
G1 X130.222 Y139.384 E19.00138
G1 X129.724 Y139.507 E19.04137
G1 X129.19 Y139.55 E19.08313
G1 X105.809 Y139.55 E20.90576
G1 X105.297 Y139.51 E20.94579
G1 X104.798 Y139.391 E20.98578
G1 X104.323 Y139.196 E21.02581
G1 X103.884 Y138.93 E21.06582
G1 X103.476 Y138.583 E21.10758
G1 X103.3 Y138.407 E21.12698
G1 X102.966 Y138.017 E21.16701
G1 X102.697 Y137.58 E21.20701
G1 X102.499 Y137.106 E21.24705
G1 X102.376 Y136.608 E21.28704
G1 X102.333 Y136.074 E21.3288
G1 X102.334 Y98.926 E24.22462
G1 X102.374 Y98.414 E24.26465
G1 X102.493 Y97.915 E24.30464
G1 X102.688 Y97.44 E24.34467
G1 X102.954 Y97.001 E24.38468
G1 X103.301 Y96.593 E24.42643
G0 F3000 X103.725 Y97.017 E24.42643
G1 F600 X103.901 Y96.841 E24.44583
G1 X104.256 Y96.542 E24.48202
G1 X104.657 Y96.308 E24.51821
G1 X105.093 Y96.147 E24.55444
G1 X105.549 Y96.063 E24.59058
G1 X105.81 Y96.05 E24.61095
G1 X129.19 Y96.05 E26.43351
G1 X129.653 Y96.09 E26.46973
G1 X130.102 Y96.209 E26.50594
G1 X130.524 Y96.402 E26.54212
G1 X130.906 Y96.665 E26.57827
G1 X131.099 Y96.841 E26.59863
G1 X131.275 Y97.017 E26.61803
G1 X131.574 Y97.372 E26.65421
G1 X131.808 Y97.773 E26.69041
G1 X131.969 Y98.209 E26.72664
G1 X132.053 Y98.665 E26.76278
G1 X132.066 Y98.926 E26.78315
G1 X132.066 Y136.074 E29.67897
G1 X132.026 Y136.537 E29.7152
G1 X131.907 Y136.986 E29.7514
G1 X131.714 Y137.408 E29.78758
G1 X131.451 Y137.79 E29.82373
G1 X131.275 Y137.983 E29.84409
G1 X131.099 Y138.159 E29.8635
G1 X130.744 Y138.458 E29.89968
G1 X130.343 Y138.692 E29.93587
G1 X129.907 Y138.853 E29.9721
G1 X129.451 Y138.937 E30.00825
G1 X129.19 Y138.95 E30.02862
G1 X105.809 Y138.95 E31.85125
G1 X105.346 Y138.91 E31.88747
G1 X104.897 Y138.791 E31.92368
G1 X104.475 Y138.598 E31.95986
G1 X104.093 Y138.335 E31.99601
G1 X103.9 Y138.159 E32.01637
G1 X103.724 Y137.983 E32.03577
G1 X103.425 Y137.628 E32.07195
G1 X103.191 Y137.227 E32.10815
G1 X103.03 Y136.791 E32.14438
G1 X102.946 Y136.335 E32.18052
G1 X102.933 Y136.074 E32.20089
G1 X102.934 Y98.926 E35.09671
G1 X102.974 Y98.463 E35.13293
G1 X103.093 Y98.014 E35.16914
G1 X103.286 Y97.592 E35.20532
G1 X103.55 Y97.21 E35.24152
G1 X103.725 Y97.017 E35.26182
G0 F3000 X104.149 Y97.441 E35.26182
G1 F600 X104.325 Y97.265 E35.28123
G1 X104.641 Y97.005 E35.31313
G1 X105.002 Y96.812 E35.34504
G1 X105.394 Y96.692 E35.37699
G1 X105.81 Y96.65 E35.40959
G1 X129.19 Y96.65 E37.23214
G1 X129.597 Y96.69 E37.26402
G1 X129.989 Y96.808 E37.29593
G1 X130.351 Y97 E37.32787
G1 X130.675 Y97.265 E37.3605
G1 X130.851 Y97.441 E37.37991
G1 X131.111 Y97.757 E37.41181
G1 X131.304 Y98.118 E37.44372
G1 X131.424 Y98.51 E37.47567
G1 X131.466 Y98.926 E37.50827
G1 X131.466 Y136.074 E40.40408
G1 X131.426 Y136.481 E40.43596
G1 X131.308 Y136.873 E40.46787
G1 X131.116 Y137.235 E40.49982
G1 X130.851 Y137.559 E40.53245
G1 X130.675 Y137.735 E40.55185
G1 X130.359 Y137.995 E40.58375
G1 X129.998 Y138.188 E40.61566
G1 X129.606 Y138.308 E40.64762
G1 X129.19 Y138.35 E40.68021
G1 X105.809 Y138.35 E42.50284
G1 X105.402 Y138.31 E42.53472
G1 X105.01 Y138.192 E42.56663
G1 X104.648 Y138 E42.59857
G1 X104.324 Y137.735 E42.6312
G1 X104.148 Y137.559 E42.65061
G1 X103.888 Y137.243 E42.6825
G1 X103.695 Y136.882 E42.71442
G1 X103.575 Y136.49 E42.74637
G1 X103.533 Y136.074 E42.77897
G1 X103.534 Y98.926 E45.67478
G1 X103.574 Y98.519 E45.70666
G1 X103.692 Y98.127 E45.73857
G1 X103.884 Y97.765 E45.77052
G1 X104.149 Y97.441 E45.80314
G0 F3000 X104.573 Y97.865 E45.80314
G1 F600 X104.749 Y97.689 E45.82255
G1 X105.02 Y97.475 E45.84946
G1 X105.334 Y97.328 E45.87649
G1 X105.81 Y97.25 E45.91409
G1 X129.19 Y97.25 E47.73664
G1 X129.534 Y97.29 E47.76364
G1 X129.859 Y97.407 E47.79057
G1 X130.251 Y97.689 E47.82821
G1 X130.427 Y97.865 E47.84761
G1 X130.641 Y98.136 E47.87453
G1 X130.788 Y98.45 E47.90156
G1 X130.866 Y98.926 E47.93916
G1 X130.866 Y136.074 E50.83497
G1 X130.826 Y136.418 E50.86197
G1 X130.709 Y136.743 E50.8889
G1 X130.427 Y137.135 E50.92654
G1 X130.251 Y137.311 E50.94594
G1 X129.98 Y137.525 E50.97286
G1 X129.666 Y137.672 E50.99989
G1 X129.19 Y137.75 E51.03749
G1 X105.809 Y137.75 E52.86012
G1 X105.465 Y137.71 E52.88711
G1 X105.14 Y137.593 E52.91404
G1 X104.748 Y137.311 E52.95168
G1 X104.572 Y137.135 E52.97109
G1 X104.358 Y136.864 E52.998
G1 X104.211 Y136.55 E53.02503
G1 X104.133 Y136.074 E53.06263
G1 X104.134 Y98.926 E55.95845
G1 X104.174 Y98.582 E55.98544
G1 X104.291 Y98.257 E56.01237
G1 X104.573 Y97.865 E56.05001
G0 F3000 X105.174 Y98.114 E56.05001
G1 F600 X105.389 Y97.955 E56.07086
G1 X105.641 Y97.866 E56.09169
G1 X105.81 Y97.85 E56.10493
G1 X129.19 Y97.85 E57.92748
G1 X129.455 Y97.89 E57.94837
G1 X129.696 Y98.006 E57.96922
G1 X130.002 Y98.29 E58.00176
G1 X130.161 Y98.505 E58.02261
G1 X130.25 Y98.757 E58.04344
G1 X130.266 Y98.926 E58.05667
G1 X130.266 Y136.074 E60.95249
G1 X130.226 Y136.339 E60.97338
G1 X130.11 Y136.58 E60.99423
G1 X129.826 Y136.886 E61.02677
G1 X129.611 Y137.045 E61.04762
G1 X129.359 Y137.134 E61.06845
G1 X129.19 Y137.15 E61.08169
G1 X105.809 Y137.15 E62.90432
G1 X105.544 Y137.11 E62.92521
G1 X105.303 Y136.994 E62.94606
G1 X104.997 Y136.71 E62.9786
G1 X104.838 Y136.495 E62.99945
G1 X104.749 Y136.243 E63.02028
G1 X104.733 Y136.074 E63.03351
G1 X104.734 Y98.926 E65.92933
G1 X104.774 Y98.661 E65.95022
G1 X104.89 Y98.42 E65.97107
G1 X105.174 Y98.114 E66.00361
G0 F3000 X105.422 Y98.714 E66.00361
G1 F600 X105.731 Y98.461 E66.03474
G1 X105.81 Y98.45 E66.04096
G1 X129.19 Y98.45 E67.86351
G1 X129.402 Y98.538 E67.88141
G1 X129.655 Y98.847 E67.91254
G1 X129.666 Y98.926 E67.91876
G1 X129.666 Y136.074 E70.81457
G1 X129.578 Y136.286 E70.83246
G1 X129.269 Y136.539 E70.8636
G1 X129.19 Y136.55 E70.86981
G1 X105.809 Y136.55 E72.69244
G1 X105.597 Y136.462 E72.71034
G1 X105.344 Y136.153 E72.74147
G1 X105.333 Y136.074 E72.74769
G1 X105.334 Y98.926 E75.6435
G1 X105.422 Y98.714 E75.66139
G1 F2400 E67.78639
;MESH:faceplate.stl
G0 F3000 X107.944 Y101.06 E69.66139
G0 X107.932 Y120.958 E69.66139
G0 X118.116 Y117.973 E69.66139
G0 X126.028 Y119.722 E69.66139
G0 X128.766 Y135.68 E69.66139
G0 X129.066 Y135.95 E69.66139
;TYPE:WALL-OUTER
G1 F2400 E73.78639
G1 F600 X105.933 Y135.95 E77.46469
G1 X105.934 Y99.05 E80.34117
G1 X129.066 Y99.05 E82.14439
G1 X129.066 Y135.95 E85.02087
G1 F2400 E77.14587
G0 F3000 X128.766 Y135.68 E79.02087
G0 X126.028 Y119.722 E79.02087
G0 X114.464 Y119.72 E79.02087
G0 X112.869 Y117.94 E79.02087
G0 X112.869 Y113.04 E79.02087
G0 X110.472 Y111.278 E79.02087
G0 X110.7 Y111.05 E79.02087
G1 F2400 E83.14587
G1 F600 X124.8 Y111.05 E86.12002
G1 X124.8 Y104.45 E86.63451
G1 X110.7 Y104.45 E87.73365
G1 X110.7 Y111.05 E88.24815
G0 F3000 X110.1 Y111.65 E88.24815
;TYPE:WALL-INNER
G1 F600 X125.4 Y111.65 E89.44083
G1 X125.4 Y103.85 E90.04887
G1 X110.1 Y103.85 E91.24156
G1 X110.1 Y111.65 E91.84959
G0 F3000 X109.5 Y112.25 E91.84959
G1 F600 X126 Y112.25 E93.13583
G1 X126 Y103.25 E93.83741
G1 X109.5 Y103.25 E95.12364
G1 X109.5 Y112.25 E95.82522
G0 F3000 X108.9 Y112.85 E95.82522
G1 F600 X126.6 Y112.85 E97.205
G1 X126.6 Y102.65 E98.00012
G1 X108.9 Y102.65 E99.3799
G1 X108.9 Y112.85 E100.17502
G1 F2400 E92.30002
G0 F3000 X126.1 Y113.04 E94.17502
G0 X127.056 Y113.04 E94.17502
G0 X127.084 Y117.968 E94.17502
G0 X126.1 Y129.05 E94.17502
G0 X125.8 Y129.05 E94.17502
;TYPE:WALL-OUTER
G1 F2400 E98.30002
G1 F600 X125.8 Y119.95 E100.8844
G1 X112.983 Y119.95 E101.88353
G1 X112.154 Y120.044 E101.94857
G1 X111.35 Y120.325 E102.01496
G1 X110.63 Y120.778 E102.08127
G1 X110.028 Y121.38 E102.14763
G1 X109.575 Y122.1 E102.21395
G1 X109.294 Y122.904 E102.28034
G1 X109.2 Y123.733 E102.34538
G1 X109.2 Y125.267 E102.46496
G1 X109.294 Y126.096 E102.52999
G1 X109.575 Y126.9 E102.59639
G1 X110.028 Y127.62 E102.6627
G1 X110.63 Y128.222 E102.72906
G1 X111.35 Y128.675 E102.79537
G1 X112.154 Y128.956 E102.86177
G1 X112.983 Y129.05 E102.9268
G1 X125.8 Y129.05 E103.92593
G0 F3000 X126.4 Y129.65 E103.92593
;TYPE:WALL-INNER
G1 F600 X126.4 Y119.35 E104.72885
G1 X112.949 Y119.35 E105.77741
G1 X112.02 Y119.455 E105.85029
G1 X111.088 Y119.781 E105.92725
G1 X110.253 Y120.306 E106.00414
G1 X109.556 Y121.003 E106.08098
G1 X109.031 Y121.838 E106.15787
G1 X108.705 Y122.77 E106.23484
G1 X108.6 Y123.699 E106.30772
G1 X108.6 Y125.301 E106.4326
G1 X108.705 Y126.23 E106.50548
G1 X109.031 Y127.162 E106.58245
G1 X109.556 Y127.997 E106.65934
G1 X110.253 Y128.694 E106.73618
G1 X111.088 Y129.219 E106.81306
G1 X112.02 Y129.545 E106.89003
G1 X112.949 Y129.65 E106.96291
G1 X126.4 Y129.65 E108.01146
G0 F3000 X127 Y130.25 E108.01146
G1 F600 X127 Y118.75 E108.90793
G1 X112.915 Y118.75 E110.0059
G1 X111.886 Y118.866 E110.08663
G1 X110.826 Y119.237 E110.17417
G1 X109.876 Y119.834 E110.26164
G1 X109.084 Y120.626 E110.34895
G1 X108.487 Y121.576 E110.43641
G1 X108.116 Y122.636 E110.52396
G1 X108 Y123.665 E110.60468
G1 X108 Y125.335 E110.73486
G1 X108.116 Y126.364 E110.81558
G1 X108.487 Y127.424 E110.90313
G1 X109.084 Y128.374 E110.99059
G1 X109.876 Y129.166 E111.07791
G1 X110.826 Y129.763 E111.16537
G1 X111.886 Y130.134 E111.25292
G1 X112.915 Y130.25 E111.33364
G1 X127 Y130.25 E112.43161
G0 F3000 X128.466 Y135.35 E112.43161
G1 F600 X106.832 Y135.35 E114.11806
G1 X106.533 Y135.35 E114.14137
G1 X106.533 Y135.051 E114.15645
G1 X106.534 Y99.65 E116.91608
G1 X128.466 Y99.65 E118.62576
G1 X128.466 Y135.35 E121.40869
G0 F3000 X127.866 Y134.75 E121.40869
G1 F600 X107.432 Y134.75 E123.00159
G1 X107.133 Y134.75 E123.0249
G1 X107.133 Y134.451 E123.03999
G1 X107.134 Y100.25 E125.70607
G1 X127.866 Y100.25 E127.3222
G1 X127.866 Y134.75 E130.0116
G0 F3000 X127.266 Y134.15 E130.0116
G1 F600 X107.733 Y134.15 E131.53426
G1 X107.733 Y128.36 E131.98561
G1 X107.733 Y127.686 E132.03815
G1 X107.733 Y127.087 E132.08485
G1 X107.943 Y127.686 E132.09519
G1 X108.302 Y128.256 E132.13131
G1 X108.612 Y128.75 E132.17678
G1 X109.5 Y129.638 E132.27467
G1 X110.564 Y130.307 E132.37265
G1 X111.752 Y130.723 E132.47077
G1 X112.881 Y130.85 E132.55933
G1 X127.266 Y130.85 E133.68069
G1 X127.266 Y134.15 E133.93794
G0 F3000 X127.266 Y118.15 E133.93794
G1 F600 X112.881 Y118.15 E135.0593
G1 X111.752 Y118.277 E135.14787
G1 X110.564 Y118.693 E135.24599
G1 X109.5 Y119.362 E135.34396
G1 X108.612 Y120.25 E135.44186
G1 X108.302 Y120.744 E135.48732
G1 X107.943 Y121.314 E135.53983
G1 X107.733 Y121.913 E135.58931
G1 X107.733 Y121.314 E135.59692
G1 X107.733 Y120.64 E135.63308
G1 X107.734 Y100.85 E137.17578
G1 X127.266 Y100.85 E138.69837
G1 X127.266 Y118.15 E140.04696
G0 F3000 X127.156 Y102.05 E140.04696
G0 X126.666 Y102.05 E140.04696
;TYPE:SKIN
G1 F600 X108.334 Y102.05 E141.47601
G1 X108.334 Y101.45 E141.52278
G1 X126.666 Y101.45 E142.95182
G1 X126.666 Y102.05 E142.99859
G0 F3000 X127.156 Y102.05 E142.99859
G0 X127.156 Y113.45 E142.99859
G0 X126.666 Y113.45 E142.99859
G1 F600 X126.666 Y117.55 E143.3182
G1 X112.847 Y117.55 E144.39544
G1 X112.813 Y116.95 E144.44229
G1 X112.746 Y116.353 E144.48912
G1 X111.35 Y116.511 E144.59864
G1 X109.778 Y117.061 E144.72846
G1 X109.533 Y117.215 E144.75102
G1 X109.533 Y114.65 E144.95097
G1 X125.466 Y114.65 E146.193
G1 X125.466 Y116.35 E146.32552
G1 X113.938 Y116.35 E147.22417
G1 X113.938 Y115.75 E147.27094
G1 X124.866 Y115.75 E148.12282
G1 X124.866 Y115.25 E148.1618
G1 X110.133 Y115.25 E149.31028
G1 X110.133 Y116.301 E149.39221
G1 X111.216 Y115.922 E149.48166
G1 X112.745 Y115.75 E149.6016
G1 X113.343 Y115.75 E149.64822
G1 X113.343 Y116.35 E149.69499
G1 X113.411 Y116.95 E149.74206
G1 X126.066 Y116.95 E150.72856
G1 X126.066 Y114.05 E150.95463
G1 X108.933 Y114.05 E152.2902
G1 X108.933 Y118.301 E152.62158
G1 X110.04 Y117.605 E152.72351
G1 X111.484 Y117.1 E152.84276
G1 X112.222 Y117.016 E152.90067
G1 X112.256 Y117.616 E152.94751
G1 X111.618 Y117.689 E152.99757
G1 X110.302 Y118.149 E153.10625
G1 X109.124 Y118.89 E153.21473
G1 X108.333 Y119.681 E153.30193
G1 X108.333 Y113.45 E153.78766
G1 X126.666 Y113.45 E155.21678
G0 F3000 X126.965 Y113.105 E155.21678
;TYPE:SKIN
;FLOW_RATE_COMPENSATED_OFFSET = 0.625000
G1 F600 X126.898 Y113.039 E153.96923
G0 F3000 X126.965 Y112.823 E153.96923
G1 F600 X126.898 Y112.756 E153.97169
G0 F3000 X126.965 Y112.54 E153.97169
G1 F600 X126.898 Y112.473 E153.97415
G0 F3000 X126.965 Y112.257 E153.97415
G1 F600 X126.898 Y112.19 E153.97661
G0 F3000 X126.965 Y111.974 E153.97661
G1 F600 X126.898 Y111.908 E153.97906
G0 F3000 X126.965 Y111.691 E153.97906
G1 F600 X126.898 Y111.625 E153.9815
G0 F3000 X126.965 Y111.408 E153.9815
G1 F600 X126.898 Y111.342 E153.98394
G0 F3000 X126.965 Y111.126 E153.98394
G1 F600 X126.898 Y111.059 E153.98641
G0 F3000 X126.965 Y110.843 E153.98641
G1 F600 X126.898 Y110.776 E153.98887
G0 F3000 X126.965 Y110.56 E153.98887
G1 F600 X126.898 Y110.493 E153.99133
G0 F3000 X126.965 Y110.277 E153.99133
G1 F600 X126.898 Y110.211 E153.99377
G0 F3000 X126.965 Y109.994 E153.99377
G1 F600 X126.898 Y109.928 E153.99622
G0 F3000 X126.965 Y109.711 E153.99622
G1 F600 X126.898 Y109.645 E153.99866
G0 F3000 X126.965 Y109.429 E153.99866
G1 F600 X126.898 Y109.362 E154.00112
G0 F3000 X126.965 Y109.146 E154.00112
G1 F600 X126.898 Y109.079 E154.00358
G0 F3000 X126.965 Y108.863 E154.00358
G1 F600 X126.898 Y108.796 E154.00605
G0 F3000 X126.965 Y108.58 E154.00605
G1 F600 X126.898 Y108.514 E154.00849
G0 F3000 X126.965 Y108.297 E154.00849
G1 F600 X126.898 Y108.231 E154.01093
