;FLAVOR:Marlin
;TIME:3537
;Filament used: 1.09049m
;Layer height: 0.16
;MINX:101.733
;MINY:94.85
;MINZ:0.2
;MAXX:133.266
;MAXY:140.15
;MAXZ:9.96
;Generated with Cura_SteamEngine 4.8.0
M140 S90
M105
M190 S90
M104 S240
M105
M109 S240
M82 ;absolute extrusion mode
; Ender 3 Custom Start G-code
G92 E0 ; Reset Extruder
G28 ; Home all axes
G1 Z2.0 F3000 ; Move Z Axis up little to prevent scratching of Heat Bed
G1 X0.1 Y20 Z0.3 F5000.0 ; Move to start position
G1 X0.1 Y200.0 Z0.3 F1500.0 E15 ; Draw the first line
G1 X0.4 Y200.0 Z0.3 F5000.0 ; Move to side a little
G1 X0.4 Y20 Z0.3 F1500.0 E30 ; Draw the second line
G92 E0 ; Reset Extruder
G1 Z2.0 F3000 ; Move Z Axis up little to prevent scratching of Heat Bed
G1 X5 Y20 Z0.3 F5000.0 ; Move over to prevent blob squish
G92 E0
G92 E0
G1 F2400 E-6
;LAYER_COUNT:51
;LAYER:0
M107
G0 F3000 X102.876 Y96.168 Z0.2
;TYPE:SKIRT
G1 F2400 E0
G1 F600 X103.052 Y95.992 E0.02794
G1 X103.474 Y95.627 E0.09057
G1 X103.944 Y95.325 E0.15328
G1 X104.452 Y95.094 E0.21593
G1 X104.988 Y94.938 E0.27859
G1 X105.81 Y94.85 E0.37139
G1 X129.19 Y94.85 E2.99586
G1 X129.747 Y94.89 E3.05855
G1 X130.292 Y95.009 E3.12117
G1 X130.815 Y95.205 E3.18386
G1 X131.304 Y95.473 E3.24646
G1 X131.948 Y95.992 E3.3393
G1 X132.124 Y96.168 E3.36724
G1 X132.489 Y96.59 E3.42988
G1 X132.791 Y97.06 E3.49259
G1 X133.022 Y97.568 E3.55523
G1 X133.178 Y98.104 E3.61789
G1 X133.266 Y98.926 E3.71069
G1 X133.266 Y136.074 E7.88067
G1 X133.226 Y136.631 E7.94335
G1 X133.107 Y137.176 E8.00597
G1 X132.911 Y137.699 E8.06867
G1 X132.643 Y138.188 E8.13126
G1 X132.124 Y138.832 E8.22411
G1 X131.948 Y139.008 E8.25205
G1 X131.526 Y139.373 E8.31468
G1 X131.056 Y139.675 E8.37739
G1 X130.548 Y139.906 E8.44003
G1 X130.012 Y140.062 E8.5027
G1 X129.19 Y140.15 E8.5955
G1 X105.809 Y140.15 E11.22008
G1 X105.252 Y140.11 E11.28277
G1 X104.707 Y139.991 E11.34539
G1 X104.184 Y139.795 E11.40808
G1 X103.695 Y139.527 E11.47068
G1 X103.051 Y139.008 E11.56352
G1 X102.875 Y138.832 E11.59146
G1 X102.51 Y138.41 E11.65409
G1 X102.208 Y137.94 E11.71681
G1 X101.977 Y137.432 E11.77945
G1 X101.821 Y136.896 E11.84211
G1 X101.733 Y136.074 E11.93491
G1 X101.734 Y98.926 E16.10489
G1 X101.774 Y98.369 E16.16757
G1 X101.893 Y97.824 E16.23019
G1 X102.089 Y97.301 E16.29289
G1 X102.357 Y96.811 E16.35558
G1 X102.876 Y96.168 E16.44834
G0 F3000 X103.301 Y96.593
G1 F600 X103.477 Y96.417 E16.47628
G1 X103.867 Y96.083 E16.53392
G1 X104.304 Y95.814 E16.59152
G1 X104.778 Y95.616 E16.64918
G1 X105.276 Y95.493 E16.70676
G1 X105.81 Y95.45 E16.7669
G1 X129.19 Y95.45 E19.39138
G1 X129.702 Y95.49 E19.44902
G1 X130.201 Y95.609 E19.50661
G1 X130.676 Y95.804 E19.56425
G1 X131.115 Y96.07 E19.62187
G1 X131.523 Y96.417 E19.68199
G1 X131.699 Y96.593 E19.70993
G1 X132.033 Y96.983 E19.76757
G1 X132.302 Y97.42 E19.82517
G1 X132.5 Y97.894 E19.88284
G1 X132.623 Y98.392 E19.94042
G1 X132.666 Y98.926 E20.00056
G1 X132.666 Y136.074 E24.17053
G1 X132.626 Y136.586 E24.22818
G1 X132.507 Y137.085 E24.28576
G1 X132.312 Y137.56 E24.3434
G1 X132.046 Y137.999 E24.40102
G1 X131.699 Y138.407 E24.46114
G1 X131.523 Y138.583 E24.48908
G1 X131.133 Y138.917 E24.54672
G1 X130.696 Y139.186 E24.60433
G1 X130.222 Y139.384 E24.66199
G1 X129.724 Y139.507 E24.71957
G1 X129.19 Y139.55 E24.77971
G1 X105.809 Y139.55 E27.40429
G1 X105.297 Y139.51 E27.46194
G1 X104.798 Y139.391 E27.51953
G1 X104.323 Y139.196 E27.57717
G1 X103.884 Y138.93 E27.63479
G1 X103.476 Y138.583 E27.69491
G1 X103.3 Y138.407 E27.72285
G1 X102.966 Y138.017 E27.78049
G1 X102.697 Y137.58 E27.83809
G1 X102.499 Y137.106 E27.89575
G1 X102.376 Y136.608 E27.95334
G1 X102.333 Y136.074 E28.01347
G1 X102.334 Y98.926 E32.18345
G1 X102.374 Y98.414 E32.2411
G1 X102.493 Y97.915 E32.29868
G1 X102.688 Y97.44 E32.35632
G1 X102.954 Y97.001 E32.41394
G1 X103.301 Y96.593 E32.47406
G0 F3000 X103.725 Y97.017
G1 F600 X103.901 Y96.841 E32.502
G1 X104.256 Y96.542 E32.5541
G1 X104.657 Y96.308 E32.60622
G1 X105.093 Y96.147 E32.65839
G1 X105.549 Y96.063 E32.71044
G1 X105.81 Y96.05 E32.73977
G1 X129.19 Y96.05 E35.36425
G1 X129.653 Y96.09 E35.41642
G1 X130.102 Y96.209 E35.46856
G1 X130.524 Y96.402 E35.52065
G1 X130.906 Y96.665 E35.57271
G1 X131.099 Y96.841 E35.60203
G1 X131.275 Y97.017 E35.62997
G1 X131.574 Y97.372 E35.68207
G1 X131.808 Y97.773 E35.73419
G1 X131.969 Y98.209 E35.78636
G1 X132.053 Y98.665 E35.83841
G1 X132.066 Y98.926 E35.86774
G1 X132.066 Y136.074 E40.03771
G1 X132.026 Y136.537 E40.08988
G1 X131.907 Y136.986 E40.14202
G1 X131.714 Y137.408 E40.19411
G1 X131.451 Y137.79 E40.24617
G1 X131.275 Y137.983 E40.27549
G1 X131.099 Y138.159 E40.30343
G1 X130.744 Y138.458 E40.35553
G1 X130.343 Y138.692 E40.40765
G1 X129.907 Y138.853 E40.45982
G1 X129.451 Y138.937 E40.51187
G1 X129.19 Y138.95 E40.54121
G1 X105.809 Y138.95 E43.16579
G1 X105.346 Y138.91 E43.21796
G1 X104.897 Y138.791 E43.2701
G1 X104.475 Y138.598 E43.32219
G1 X104.093 Y138.335 E43.37425
G1 X103.9 Y138.159 E43.40357
G1 X103.724 Y137.983 E43.43151
G1 X103.425 Y137.628 E43.48361
G1 X103.191 Y137.227 E43.53573
G1 X103.03 Y136.791 E43.5879
G1 X102.946 Y136.335 E43.63995
G1 X102.933 Y136.074 E43.66929
G1 X102.934 Y98.926 E47.83926
G1 X102.974 Y98.463 E47.89143
G1 X103.093 Y98.014 E47.94357
G1 X103.286 Y97.592 E47.99566
G1 X103.55 Y97.21 E48.04778
G1 X103.725 Y97.017 E48.07703
G0 F3000 X104.149 Y97.441
G1 F600 X104.325 Y97.265 E48.10497
G1 X104.641 Y97.005 E48.1509
G1 X105.002 Y96.812 E48.19685
G1 X105.394 Y96.692 E48.24287
G1 X105.81 Y96.65 E48.28981
G1 X129.19 Y96.65 E50.91428
G1 X129.597 Y96.69 E50.96019
G1 X129.989 Y96.808 E51.00614
G1 X130.351 Y97 E51.05214
G1 X130.675 Y97.265 E51.09912
G1 X130.851 Y97.441 E51.12706
G1 X131.111 Y97.757 E51.173
G1 X131.304 Y98.118 E51.21895
G1 X131.424 Y98.51 E51.26497
G1 X131.466 Y98.926 E51.3119
G1 X131.466 Y136.074 E55.48188
G1 X131.426 Y136.481 E55.52778
G1 X131.308 Y136.873 E55.57374
G1 X131.116 Y137.235 E55.61974
G1 X130.851 Y137.559 E55.66672
G1 X130.675 Y137.735 E55.69466
G1 X130.359 Y137.995 E55.7406
G1 X129.998 Y138.188 E55.78655
G1 X129.606 Y138.308 E55.83257
G1 X129.19 Y138.35 E55.8795
G1 X105.809 Y138.35 E58.50409
G1 X105.402 Y138.31 E58.54999
G1 X105.01 Y138.192 E58.59595
G1 X104.648 Y138 E58.64195
G1 X104.324 Y137.735 E58.68893
G1 X104.148 Y137.559 E58.71687
G1 X103.888 Y137.243 E58.76281
G1 X103.695 Y136.882 E58.80876
G1 X103.575 Y136.49 E58.85478
G1 X103.533 Y136.074 E58.90171
G1 X103.534 Y98.926 E63.07168
G1 X103.574 Y98.519 E63.11759
G1 X103.692 Y98.127 E63.16354
G1 X103.884 Y97.765 E63.20954
G1 X104.149 Y97.441 E63.25653
G0 F3000 X104.573 Y97.865
G1 F600 X104.749 Y97.689 E63.28447
G1 X105.02 Y97.475 E63.32323
G1 X105.334 Y97.328 E63.36215
G1 X105.81 Y97.25 E63.41629
G1 X129.19 Y97.25 E66.04077
G1 X129.534 Y97.29 E66.07964
G1 X129.859 Y97.407 E66.11842
G1 X130.251 Y97.689 E66.17262
G1 X130.427 Y97.865 E66.20056
G1 X130.641 Y98.136 E66.23932
G1 X130.788 Y98.45 E66.27824
G1 X130.866 Y98.926 E66.33239
G1 X130.866 Y136.074 E70.50236
G1 X130.826 Y136.418 E70.54124
G1 X130.709 Y136.743 E70.58001
G1 X130.427 Y137.135 E70.63422
G1 X130.251 Y137.311 E70.66216
G1 X129.98 Y137.525 E70.70092
G1 X129.666 Y137.672 E70.73984
G1 X129.19 Y137.75 E70.79398
G1 X105.809 Y137.75 E73.41857
G1 X105.465 Y137.71 E73.45744
G1 X105.14 Y137.593 E73.49622
G1 X104.748 Y137.311 E73.55043
G1 X104.572 Y137.135 E73.57837
G1 X104.358 Y136.864 E73.61713
G1 X104.211 Y136.55 E73.65605
G1 X104.133 Y136.074 E73.71019
G1 X104.134 Y98.926 E77.88016
G1 X104.174 Y98.582 E77.91904
G1 X104.291 Y98.257 E77.95781
G1 X104.573 Y97.865 E78.01202
G0 F3000 X105.174 Y98.114
G1 F600 X105.389 Y97.955 E78.04204
G1 X105.641 Y97.866 E78.07204
G1 X105.81 Y97.85 E78.09109
G1 X129.19 Y97.85 E80.71557
G1 X129.455 Y97.89 E80.74565
G1 X129.696 Y98.006 E80.77567
G1 X130.002 Y98.29 E80.82254
G1 X130.161 Y98.505 E80.85255
G1 X130.25 Y98.757 E80.88255
G1 X130.266 Y98.926 E80.90161
G1 X130.266 Y136.074 E85.07158
G1 X130.226 Y136.339 E85.10167
G1 X130.11 Y136.58 E85.13169
G1 X129.826 Y136.886 E85.17855
G1 X129.611 Y137.045 E85.20857
G1 X129.359 Y137.134 E85.23857
G1 X129.19 Y137.15 E85.25763
G1 X105.809 Y137.15 E87.88221
G1 X105.544 Y137.11 E87.9123
G1 X105.303 Y136.994 E87.94232
G1 X104.997 Y136.71 E87.98919
G1 X104.838 Y136.495 E88.0192
G1 X104.749 Y136.243 E88.0492
G1 X104.733 Y136.074 E88.06826
G1 X104.734 Y98.926 E92.23823
G1 X104.774 Y98.661 E92.26831
G1 X104.89 Y98.42 E92.29834
G1 X105.174 Y98.114 E92.3452
G0 F3000 X105.422 Y98.714
G1 F600 X105.731 Y98.461 E92.39003
G1 X105.81 Y98.45 E92.39899
G1 X129.19 Y98.45 E95.02346
G1 X129.402 Y98.538 E95.04923
G1 X129.655 Y98.847 E95.09406
G1 X129.666 Y98.926 E95.10301
G1 X129.666 Y136.074 E99.27298
G1 X129.578 Y136.286 E99.29875
G1 X129.269 Y136.539 E99.34358
G1 X129.19 Y136.55 E99.35253
G1 X105.809 Y136.55 E101.97712
G1 X105.597 Y136.462 E102.00288
G1 X105.344 Y136.153 E102.04771
G1 X105.333 Y136.074 E102.05667
G1 X105.334 Y98.926 E106.22664
G1 X105.422 Y98.714 E106.25241
G1 F2400 E100.25241
;MESH:faceplate.stl
G0 F3000 X107.944 Y101.06
G0 X107.932 Y120.958
G0 X118.116 Y117.973
G0 X126.028 Y119.722
G0 X128.766 Y135.68
G0 X129.066 Y135.95
;TYPE:WALL-OUTER
G1 F2400 E106.25241
G1 F600 X105.933 Y135.95 E107.98357
G1 X105.934 Y99.05 E110.74499
G1 X129.066 Y99.05 E112.47608
G1 X129.066 Y135.95 E115.23751
G1 F2400 E109.23751
G0 F3000 X128.766 Y135.68
G0 X126.028 Y119.722
G0 X114.464 Y119.72
G0 X112.869 Y117.94
G0 X112.869 Y113.04
G0 X110.472 Y111.278
G0 X110.7 Y111.05
G1 F2400 E115.23751
G1 F600 X124.8 Y111.05 E116.29268
G1 X124.8 Y104.45 E116.7866
G1 X110.7 Y104.45 E117.84178
G1 X110.7 Y111.05 E118.33569
G0 F3000 X110.1 Y111.65
;TYPE:WALL-INNER
G1 F600 X125.4 Y111.65 E119.48067
G1 X125.4 Y103.85 E120.06438
G1 X110.1 Y103.85 E121.20936
G1 X110.1 Y111.65 E121.79308
G0 F3000 X109.5 Y112.25
G1 F600 X126 Y112.25 E123.02786
G1 X126 Y103.25 E123.70138
G1 X109.5 Y103.25 E124.93616
G1 X109.5 Y112.25 E125.60968
G0 F3000 X108.9 Y112.85
G1 F600 X126.6 Y112.85 E126.93426
G1 X126.6 Y102.65 E127.69758
G1 X108.9 Y102.65 E129.02217
G1 X108.9 Y112.85 E129.78549
G1 F2400 E123.78549
G0 F3000 X126.1 Y113.04
G0 X127.056 Y113.04
G0 X127.084 Y117.968
G0 X126.1 Y129.05
G0 X125.8 Y129.05
;TYPE:WALL-OUTER
G1 F2400 E129.78549
G1 F600 X125.8 Y119.95 E130.46649
G1 X112.983 Y119.95 E131.42566
G1 X112.154 Y120.044 E131.48809
G1 X111.35 Y120.325 E131.55183
G1 X110.63 Y120.778 E131.61549
G1 X110.028 Y121.38 E131.6792
G1 X109.575 Y122.1 E131.74286
G1 X109.294 Y122.904 E131.80659
G1 X109.2 Y123.733 E131.86903
G1 X109.2 Y125.267 E131.98383
G1 X109.294 Y126.096 E132.04626
G1 X109.575 Y126.9 E132.11
G1 X110.028 Y127.62 E132.17366
G1 X110.63 Y128.222 E132.23737
G1 X111.35 Y128.675 E132.30103
G1 X112.154 Y128.956 E132.36477
G1 X112.983 Y129.05 E132.4272
G1 X125.8 Y129.05 E133.38637
G0 F3000 X126.4 Y129.65
;TYPE:WALL-INNER
G1 F600 X126.4 Y119.35 E134.15717
G1 X112.949 Y119.35 E135.16378
G1 X112.02 Y119.455 E135.23374
G1 X111.088 Y119.781 E135.30763
G1 X110.253 Y120.306 E135.38145
G1 X109.556 Y121.003 E135.45521
G1 X109.031 Y121.838 E135.52902
G1 X108.705 Y122.77 E135.60291
G1 X108.6 Y123.699 E135.67288
G1 X108.6 Y125.301 E135.79276
G1 X108.705 Y126.23 E135.86273
G1 X109.031 Y127.162 E135.93662
G1 X109.556 Y127.997 E136.01043
G1 X110.253 Y128.694 E136.0842
G1 X111.088 Y129.219 E136.15801
G1 X112.02 Y129.545 E136.2319
G1 X112.949 Y129.65 E136.30186
G1 X126.4 Y129.65 E137.30847
G0 F3000 X127 Y130.25
G1 F600 X127 Y118.75 E138.16908
G1 X112.915 Y118.75 E139.22314
G1 X111.886 Y118.866 E139.30063
G1 X110.826 Y119.237 E139.38467
G1 X109.876 Y119.834 E139.46864
G1 X109.084 Y120.626 E139.55246
G1 X108.487 Y121.576 E139.63642
G1 X108.116 Y122.636 E139.72047
G1 X108 Y123.665 E139.79796
G1 X108 Y125.335 E139.92294
G1 X108.116 Y126.364 E140.00043
G1 X108.487 Y127.424 E140.08447
G1 X109.084 Y128.374 E140.16844
G1 X109.876 Y129.166 E140.25226
G1 X110.826 Y129.763 E140.33623
G1 X111.886 Y130.134 E140.42027
G1 X112.915 Y130.25 E140.49776
G1 X127 Y130.25 E141.55182
G0 F3000 X128.466 Y135.35
G1 F600 X106.832 Y135.35 E143.17081
G1 X106.533 Y135.35 E143.19318
G1 X106.533 Y135.051 E143.20766
G1 X106.534 Y99.65 E145.85691
G1 X128.466 Y99.65 E147.49819
G1 X128.466 Y135.35 E150.16981
G0 F3000 X127.866 Y134.75
G1 F600 X107.432 Y134.75 E151.699
G1 X107.133 Y134.75 E151.72137
G1 X107.133 Y134.451 E151.73586
G1 X107.134 Y100.25 E154.2953
G1 X127.866 Y100.25 E155.84678
G1 X127.866 Y134.75 E158.4286
G0 F3000 X127.266 Y134.15
G1 F600 X107.733 Y134.15 E159.89036
G1 X107.733 Y128.36 E160.32366
G1 X107.733 Y127.686 E160.37409
G1 X107.733 Y127.087 E160.41892
G1 X107.943 Y127.686 E160.42885
G1 X108.302 Y128.256 E160.46353
G1 X108.612 Y128.75 E160.50717
G1 X109.5 Y129.638 E160.60115
G1 X110.564 Y130.307 E160.69521
G1 X111.752 Y130.723 E160.78941
G1 X112.881 Y130.85 E160.87443
G1 X127.266 Y130.85 E161.95093
G1 X127.266 Y134.15 E162.19789
G0 F3000 X127.266 Y118.15
G1 F600 X112.881 Y118.15 E163.2744
G1 X111.752 Y118.277 E163.35942
G1 X110.564 Y118.693 E163.45362
G1 X109.5 Y119.362 E163.54767
G1 X108.612 Y120.25 E163.64165
G1 X108.302 Y120.744 E163.6853
G1 X107.943 Y121.314 E163.73571
G1 X107.733 Y121.913 E163.78321
G1 X107.733 Y121.314 E163.79051
G1 X107.733 Y120.64 E163.82523
G1 X107.734 Y100.85 E165.30622
G1 X127.266 Y100.85 E166.7679
G1 X127.266 Y118.15 E168.06255
G0 F3000 X126.676 Y117.56
;TYPE:SKIN
G1 F600 X112.848 Y117.56 E169.09738
G1 X111.62 Y117.698 E169.18985
G1 X110.306 Y118.158 E169.29404
G1 X109.13 Y118.898 E169.39802
G1 X108.323 Y119.705 E169.48343
G1 X108.323 Y113.44 E169.95227
G1 X126.676 Y113.44 E171.32572
G1 X126.676 Y117.56 E171.63404
G0 F3000 X127.156 Y117.56
G0 X127.156 Y102.06
G0 X126.676 Y102.06
G1 F600 X108.324 Y102.06 E173.00742
G1 X108.324 Y101.44 E173.05382
G1 X126.676 Y101.44 E174.4272
G1 X126.676 Y102.06 E174.47359
G0 F3000 X126.406 Y101.799
G1 F600 X126.307 Y101.7 E174.48407
G0 F3000 X125.558 Y101.799
G1 F600 X125.459 Y101.7 E174.49455
G0 F3000 X124.709 Y101.799
G1 F600 X124.61 Y101.7 E174.50503
G0 F3000 X123.861 Y101.799
G1 F600 X123.762 Y101.7 E174.5155
G0 F3000 X123.012 Y101.799
G1 F600 X122.913 Y101.7 E174.52598
G0 F3000 X122.164 Y101.799
G1 F600 X122.065 Y101.7 E174.53646
G0 F3000 X121.315 Y101.799
G1 F600 X121.216 Y101.7 E174.54694
G0 F3000 X120.466 Y101.799
G1 F600 X120.367 Y101.7 E174.55741
G0 F3000 X119.618 Y101.799
G1 F600 X119.519 Y101.7 E174.56789
G0 F3000 X118.769 Y101.799
G1 F600 X118.67 Y101.7 E174.57837
G0 F3000 X117.921 Y101.799
G1 F600 X117.822 Y101.7 E174.58885
G0 F3000 X117.072 Y101.799
G1 F600 X116.973 Y101.7 E174.59932
G0 F3000 X116.224 Y101.799
G1 F600 X116.125 Y101.7 E174.6098
G0 F3000 X115.375 Y101.799
G1 F600 X115.276 Y101.7 E174.62028
G0 F3000 X114.527 Y101.799
G1 F600 X114.428 Y101.7 E174.63076
G0 F3000 X113.678 Y101.799
G1 F600 X113.579 Y101.7 E174.64123
G0 F3000 X112.83 Y101.799
G1 F600 X112.731 Y101.7 E174.65171
G0 F3000 X111.981 Y101.799
G1 F600 X111.882 Y101.7 E174.66219
G0 F3000 X111.133 Y101.799
G1 F600 X111.034 Y101.7 E174.67267
G0 F3000 X110.284 Y101.799
G1 F600 X110.185 Y101.7 E174.68314
G0 F3000 X109.436 Y101.799
G1 F600 X109.337 Y101.7 E174.69362
G1 F2400 E168.69362
G0 F3000 X109.337 Y100.96
G0 X109.457 Y102.46
G0 X109.457 Y112.96
G0 X109.457 Y113.699
G1 F2400 E174.69362
G1 F600 X113.057 Y117.299 E175.07462
G0 F3000 X112.27 Y117.362
G1 F600 X108.608 Y113.699 E175.46223
G0 F3000 X108.582 Y114.522
G1 F600 X111.517 Y117.456 E175.7728
G0 F3000 X110.889 Y117.677
G1 F600 X108.582 Y115.37 E176.01696
G0 F3000 X108.582 Y116.219
G1 F600 X110.26 Y117.897 E176.19455
G0 F3000 X109.728 Y118.213
G1 F600 X108.582 Y117.067 E176.31583
G0 F3000 X108.582 Y117.916
G1 F600 X109.206 Y118.54 E176.38187
G0 F3000 X108.738 Y118.92
G1 F600 X108.582 Y118.764 E176.39838
G1 F2400 E170.39838
G0 F3000 X107.844 Y118.763
G0 X107.924 Y112.958
G0 X108.71 Y112.958
G0 X110.305 Y112.96
G0 X110.305 Y113.699
G1 F2400 E176.39838
G1 F600 X113.905 Y117.299 E176.77938
G0 F3000 X114.754 Y117.299
G1 F600 X111.154 Y113.699 E177.16038
G0 F3000 X112.002 Y113.699
G1 F600 X115.602 Y117.299 E177.54138
G0 F3000 X116.451 Y117.299
G1 F600 X112.851 Y113.699 E177.92238
G0 F3000 X113.699 Y113.699
G1 F600 X117.299 Y117.299 E178.30338
