;FLAVOR:Marlin
;TIME:13238
;Filament used: 3.08376m
;Layer height: 0.16
;MINX:91.1
;MINY:61.1
;MINZ:0.2
;MAXX:143.9
;MAXY:173.9
;MAXZ:2.48
;Generated with Cura_SteamEngine 4.8.0
M140 S75
M105
M190 S75
M104 S240
M105
M109 S240
M82 ;absolute extrusion mode
; Ender 3 Custom Start G-code
G92 E0 ; Reset Extruder
G28 ; Home all axes
G1 Z2.0 F3000 ; Move Z Axis up little to prevent scratching of Heat Bed
G1 X5 Y20 Z0.3 F5000.0 ; Move over to prevent blob squish
G92 E0
G92 E0
G1 F2400 E-6
;LAYER_COUNT:14
;LAYER:0
M107
G0 F3000 X92.099 Y63.04 Z0.2
;TYPE:SKIRT
G1 F2400 E0
;FLOW_RATE_COMPENSATED_OFFSET = 1.875000
G1 F600 X92.301 Y62.795 E1.89975
G1 X92.336 Y62.756 E1.90384
G1 X92.781 Y62.333 E1.9517
G1 X93.073 Y62.096 E1.98102
G1 X93.763 Y61.648 E2.04515
G1 X93.822 Y61.618 E2.05031
G1 X94.337 Y61.401 E2.09387
G1 X94.668 Y61.304 E2.12076
G1 X95.038 Y61.214 E2.15044
G1 X95.552 Y61.125 E2.19111
G1 X95.59 Y61.121 E2.19408
G1 X95.998 Y61.1 E2.22593
G1 X138.983 Y61.1 E5.57676
G1 X139.379 Y61.12 E5.60767
G1 X139.848 Y61.193 E5.64467
G1 X140.214 Y61.273 E5.67387
G1 X140.749 Y61.431 E5.71736
G1 X141.272 Y61.672 E5.76225
G1 X141.492 Y61.794 E5.78186
G1 X141.96 Y62.099 E5.82541
G1 X142.201 Y62.299 E5.84982
G1 X142.239 Y62.333 E5.85379
G1 X142.667 Y62.781 E5.90209
G1 X142.904 Y63.073 E5.93141
G1 X143.352 Y63.763 E5.99554
G1 X143.382 Y63.822 E6.0007
G1 X143.599 Y64.337 E6.04426
G1 X143.696 Y64.668 E6.07115
G1 X143.786 Y65.038 E6.10084
G1 X143.872 Y65.529 E6.13969
G1 X143.876 Y65.565 E6.14252
G1 X143.9 Y65.996 E6.17617
G1 X143.9 Y168.982 E14.20428
G1 X143.88 Y169.378 E14.23519
G1 X143.808 Y169.845 E14.27202
G1 X143.728 Y170.212 E14.3013
G1 X143.57 Y170.747 E14.34479
G1 X143.331 Y171.267 E14.3894
G1 X143.21 Y171.486 E14.40891
G1 X142.905 Y171.954 E14.45245
G1 X142.699 Y172.205 E14.47776
G1 X142.664 Y172.244 E14.48185
G1 X142.219 Y172.667 E14.52971
G1 X141.927 Y172.904 E14.55903
G1 X141.237 Y173.352 E14.62316
G1 X141.178 Y173.382 E14.62832
G1 X140.663 Y173.599 E14.67188
G1 X140.332 Y173.696 E14.69877
G1 X139.962 Y173.786 E14.72845
G1 X139.448 Y173.875 E14.76912
G1 X139.41 Y173.879 E14.7721
G1 X139.002 Y173.9 E14.80394
G1 X96.017 Y173.9 E18.15477
G1 X95.621 Y173.88 E18.18568
G1 X95.152 Y173.807 E18.22268
G1 X94.786 Y173.727 E18.25189
G1 X94.251 Y173.569 E18.29537
G1 X93.728 Y173.328 E18.34026
G1 X93.508 Y173.206 E18.35987
G1 X93.04 Y172.901 E18.40342
G1 X92.799 Y172.701 E18.42783
G1 X92.761 Y172.667 E18.43181
G1 X92.333 Y172.219 E18.4801
G1 X92.096 Y171.927 E18.50942
G1 X91.648 Y171.237 E18.57355
G1 X91.618 Y171.178 E18.57871
G1 X91.401 Y170.663 E18.62228
G1 X91.304 Y170.332 E18.64916
G1 X91.214 Y169.962 E18.67885
G1 X91.128 Y169.471 E18.71771
G1 X91.124 Y169.435 E18.72053
G1 X91.1 Y169.004 E18.75418
G1 X91.1 Y66.017 E26.78237
G1 X91.12 Y65.621 E26.81328
G1 X91.192 Y65.154 E26.85011
G1 X91.272 Y64.787 E26.87939
G1 X91.43 Y64.252 E26.92288
G1 X91.673 Y63.725 E26.96812
G1 X91.794 Y63.507 E26.98755
G1 X92.099 Y63.04 E27.03103
G0 F3000 X92.748 Y63.196 E27.03103
G1 F600 X92.783 Y63.157 E27.03512
G1 X93.159 Y62.799 E27.07559
G1 X93.451 Y62.562 E27.10491
G1 X94.035 Y62.182 E27.15922
G1 X94.094 Y62.152 E27.16438
G1 X94.81 Y61.887 E27.2239
G1 X95.18 Y61.797 E27.25358
G1 X95.615 Y61.722 E27.28799
G1 X95.653 Y61.718 E27.29097
G1 X95.998 Y61.7 E27.3179
G1 X138.983 Y61.7 E30.66873
G1 X139.323 Y61.717 E30.69526
G1 X139.72 Y61.779 E30.72659
G1 X140.086 Y61.859 E30.75579
G1 X140.577 Y62.007 E30.79577
G1 X140.981 Y62.197 E30.83057
G1 X141.201 Y62.319 E30.85018
G1 X141.801 Y62.746 E30.90759
G1 X141.839 Y62.78 E30.91156
G1 X142.201 Y63.159 E30.95242
G1 X142.438 Y63.451 E30.98173
G1 X142.818 Y64.035 E31.03605
G1 X142.848 Y64.094 E31.04121
G1 X143.113 Y64.81 E31.10072
G1 X143.203 Y65.18 E31.13041
G1 X143.276 Y65.596 E31.16333
G1 X143.28 Y65.632 E31.16615
G1 X143.3 Y65.996 E31.19457
G1 X143.3 Y168.982 E39.22269
G1 X143.283 Y169.322 E39.24922
G1 X143.221 Y169.717 E39.28039
G1 X143.141 Y170.084 E39.30967
G1 X142.993 Y170.575 E39.34965
G1 X142.805 Y170.977 E39.38424
G1 X142.684 Y171.196 E39.40375
G1 X142.252 Y171.804 E39.46189
G1 X142.217 Y171.843 E39.46597
G1 X141.841 Y172.201 E39.50644
G1 X141.549 Y172.438 E39.53576
G1 X140.965 Y172.818 E39.59007
G1 X140.906 Y172.848 E39.59523
G1 X140.19 Y173.113 E39.65475
G1 X139.82 Y173.203 E39.68443
G1 X139.385 Y173.278 E39.71884
G1 X139.347 Y173.282 E39.72182
G1 X139.002 Y173.3 E39.74875
G1 X96.017 Y173.3 E43.09958
G1 X95.677 Y173.283 E43.12612
G1 X95.28 Y173.221 E43.15744
G1 X94.914 Y173.141 E43.18665
G1 X94.423 Y172.993 E43.22662
G1 X94.019 Y172.803 E43.26142
G1 X93.799 Y172.681 E43.28103
G1 X93.199 Y172.254 E43.33844
G1 X93.161 Y172.22 E43.34242
G1 X92.799 Y171.841 E43.38327
G1 X92.562 Y171.549 E43.41259
G1 X92.182 Y170.965 E43.4669
G1 X92.152 Y170.906 E43.47206
G1 X91.887 Y170.19 E43.53158
G1 X91.797 Y169.82 E43.56126
G1 X91.724 Y169.404 E43.59418
G1 X91.72 Y169.368 E43.59701
G1 X91.7 Y169.004 E43.62543
G1 X91.7 Y66.017 E51.65362
G1 X91.717 Y65.677 E51.68015
G1 X91.779 Y65.282 E51.71132
G1 X91.859 Y64.915 E51.7406
G1 X92.007 Y64.424 E51.78058
G1 X92.198 Y64.017 E51.81563
G1 X92.319 Y63.799 E51.83506
G1 X92.748 Y63.196 E51.89275
G0 F3000 X93.195 Y63.597 E51.89275
G1 F600 X93.23 Y63.558 E51.89684
G1 X93.537 Y63.265 E51.92992
G1 X93.829 Y63.028 E51.95923
G1 X94.307 Y62.717 E52.00369
G1 X94.366 Y62.687 E52.00885
G1 X94.952 Y62.47 E52.05756
G1 X95.322 Y62.38 E52.08724
G1 X95.677 Y62.319 E52.11532
G1 X95.715 Y62.315 E52.1183
G1 X95.998 Y62.3 E52.14039
G1 X138.983 Y62.3 E55.49122
G1 X139.267 Y62.315 E55.51339
G1 X139.592 Y62.365 E55.53902
G1 X139.958 Y62.445 E55.56823
G1 X140.401 Y62.583 E55.6044
G1 X140.69 Y62.722 E55.6294
G1 X140.91 Y62.844 E55.64901
G1 X141.401 Y63.193 E55.69597
G1 X141.439 Y63.227 E55.69994
G1 X141.735 Y63.537 E55.73335
G1 X141.972 Y63.829 E55.76267
G1 X142.283 Y64.307 E55.80713
G1 X142.313 Y64.366 E55.81229
G1 X142.53 Y64.952 E55.861
G1 X142.62 Y65.322 E55.89068
G1 X142.679 Y65.662 E55.91758
G1 X142.683 Y65.698 E55.92041
G1 X142.7 Y65.996 E55.94367
G1 X142.7 Y168.982 E63.97179
G1 X142.685 Y169.266 E63.99396
G1 X142.635 Y169.589 E64.01943
G1 X142.555 Y169.956 E64.04872
G1 X142.418 Y170.4 E64.08494
G1 X142.28 Y170.687 E64.10976
G1 X142.159 Y170.906 E64.12927
G1 X141.805 Y171.403 E64.17683
G1 X141.77 Y171.442 E64.18092
G1 X141.463 Y171.735 E64.214
G1 X141.171 Y171.972 E64.24331
G1 X140.693 Y172.283 E64.28777
G1 X140.634 Y172.313 E64.29293
G1 X140.048 Y172.53 E64.34164
G1 X139.678 Y172.62 E64.37132
G1 X139.323 Y172.681 E64.3994
G1 X139.285 Y172.685 E64.40238
G1 X139.002 Y172.7 E64.42447
G1 X96.017 Y172.7 E67.7753
G1 X95.733 Y172.685 E67.79747
G1 X95.408 Y172.635 E67.82311
G1 X95.042 Y172.555 E67.85231
G1 X94.599 Y172.417 E67.88848
G1 X94.31 Y172.278 E67.91348
G1 X94.09 Y172.156 E67.93309
G1 X93.599 Y171.807 E67.98005
G1 X93.561 Y171.773 E67.98402
G1 X93.265 Y171.463 E68.01744
G1 X93.028 Y171.171 E68.04675
G1 X92.717 Y170.693 E68.09121
G1 X92.687 Y170.634 E68.09637
G1 X92.47 Y170.048 E68.14508
G1 X92.38 Y169.678 E68.17476
G1 X92.321 Y169.338 E68.20166
G1 X92.317 Y169.302 E68.20449
G1 X92.3 Y169.004 E68.22775
G1 X92.3 Y66.017 E76.25594
G1 X92.315 Y65.733 E76.27811
G1 X92.365 Y65.41 E76.30359
G1 X92.445 Y65.043 E76.33287
G1 X92.582 Y64.599 E76.3691
G1 X92.722 Y64.308 E76.39427
G1 X92.843 Y64.09 E76.4137
G1 X93.195 Y63.597 E76.46093
G0 F3000 X93.641 Y63.997 E76.46093
G1 F600 X93.676 Y63.958 E76.46501
G1 X93.916 Y63.73 E76.49082
G1 X94.208 Y63.493 E76.52013
G1 X94.579 Y63.252 E76.55462
G1 X94.638 Y63.222 E76.55978
G1 X95.094 Y63.053 E76.59769
G1 X95.464 Y62.963 E76.62737
G1 X95.74 Y62.916 E76.6492
G1 X95.998 Y62.9 E76.66935
G1 X138.983 Y62.9 E80.02018
G1 X139.211 Y62.912 E80.03797
G1 X139.463 Y62.951 E80.05785
G1 X139.829 Y63.031 E80.08706
G1 X140.399 Y63.246 E80.13455
G1 X140.619 Y63.368 E80.15416
G1 X141.001 Y63.64 E80.19071
G1 X141.039 Y63.674 E80.19469
G1 X141.27 Y63.916 E80.22077
G1 X141.507 Y64.208 E80.25008
G1 X141.748 Y64.579 E80.28457
G1 X141.778 Y64.638 E80.28973
G1 X141.947 Y65.094 E80.32764
G1 X142.037 Y65.464 E80.35732
G1 X142.083 Y65.728 E80.37821
G1 X142.1 Y65.996 E80.39915
G1 X142.1 Y168.982 E88.42726
G1 X142.088 Y169.21 E88.44506
G1 X142.049 Y169.461 E88.46486
G1 X141.969 Y169.828 E88.49414
G1 X141.755 Y170.397 E88.54153
G1 X141.634 Y170.616 E88.56103
G1 X141.359 Y171.003 E88.59804
G1 X141.324 Y171.042 E88.60213
G1 X141.084 Y171.27 E88.62793
G1 X140.792 Y171.507 E88.65725
G1 X140.421 Y171.748 E88.69174
G1 X140.362 Y171.778 E88.6969
G1 X139.906 Y171.947 E88.7348
G1 X139.536 Y172.037 E88.76449
G1 X139.26 Y172.084 E88.78631
G1 X139.002 Y172.1 E88.80646
G1 X96.017 Y172.1 E92.15729
G1 X95.789 Y172.088 E92.17509
G1 X95.537 Y172.049 E92.19497
G1 X95.171 Y171.969 E92.22417
G1 X94.601 Y171.754 E92.27166
G1 X94.381 Y171.632 E92.29127
G1 X93.999 Y171.36 E92.32783
G1 X93.961 Y171.326 E92.3318
G1 X93.73 Y171.084 E92.35788
G1 X93.493 Y170.792 E92.3872
G1 X93.252 Y170.421 E92.42169
G1 X93.222 Y170.362 E92.42685
G1 X93.053 Y169.906 E92.46476
G1 X92.963 Y169.536 E92.49444
G1 X92.917 Y169.272 E92.51533
G1 X92.9 Y169.004 E92.53626
G1 X92.9 Y66.017 E100.56445
G1 X92.912 Y65.789 E100.58225
G1 X92.951 Y65.538 E100.60205
G1 X93.031 Y65.171 E100.63133
G1 X93.247 Y64.599 E100.679
G1 X93.368 Y64.381 E100.69843
G1 X93.641 Y63.997 E100.73516
G0 F3000 X94.088 Y64.398 E100.73516
G1 F600 X94.294 Y64.196 E100.75765
G1 X94.586 Y63.959 E100.78697
G1 X94.851 Y63.787 E100.81159
G1 X94.91 Y63.757 E100.81675
G1 X95.235 Y63.636 E100.84379
G1 X95.605 Y63.546 E100.87347
G1 X95.998 Y63.5 E100.90432
G1 X138.983 Y63.5 E104.25515
G1 X139.335 Y63.538 E104.28274
G1 X139.701 Y63.618 E104.31195
G1 X140.108 Y63.771 E104.34584
G1 X140.328 Y63.893 E104.36545
G1 X140.601 Y64.087 E104.39156
G1 X140.804 Y64.294 E104.41416
G1 X141.041 Y64.586 E104.44348
G1 X141.213 Y64.851 E104.46811
G1 X141.243 Y64.91 E104.47327
G1 X141.364 Y65.235 E104.5003
G1 X141.454 Y65.605 E104.52998
G1 X141.5 Y65.996 E104.56067
G1 X141.5 Y168.982 E112.58879
G1 X141.463 Y169.333 E112.6163
G1 X141.383 Y169.7 E112.64558
G1 X141.23 Y170.106 E112.6794
G1 X141.109 Y170.325 E112.69891
G1 X140.912 Y170.602 E112.7254
G1 X140.706 Y170.804 E112.74789
G1 X140.414 Y171.041 E112.77721
G1 X140.149 Y171.213 E112.80184
G1 X140.09 Y171.243 E112.807
G1 X139.765 Y171.364 E112.83403
G1 X139.395 Y171.454 E112.86372
G1 X139.002 Y171.5 E112.89456
G1 X96.017 Y171.5 E116.24539
G1 X95.665 Y171.462 E116.27299
G1 X95.299 Y171.382 E116.30219
G1 X94.892 Y171.229 E116.33609
G1 X94.672 Y171.107 E116.3557
G1 X94.399 Y170.913 E116.3818
G1 X94.196 Y170.706 E116.40441
G1 X93.959 Y170.414 E116.43372
G1 X93.787 Y170.149 E116.45835
G1 X93.757 Y170.09 E116.46351
G1 X93.636 Y169.765 E116.49054
G1 X93.546 Y169.395 E116.52023
G1 X93.5 Y169.004 E116.55092
G1 X93.5 Y66.017 E124.57911
G1 X93.537 Y65.666 E124.60662
G1 X93.617 Y65.299 E124.6359
G1 X93.771 Y64.89 E124.66997
G1 X93.892 Y64.672 E124.68941
G1 X94.088 Y64.398 E124.71567
G0 F3000 X94.534 Y64.799 E124.71567
G1 F600 X94.672 Y64.662 E124.73083
G1 X94.964 Y64.425 E124.76014
G1 X95.182 Y64.292 E124.78005
G1 X95.377 Y64.219 E124.79628
G1 X95.747 Y64.129 E124.82596
G1 X95.998 Y64.1 E124.84566
G1 X138.983 Y64.1 E128.19649
G1 X139.207 Y64.124 E128.21405
G1 X139.573 Y64.204 E128.24326
G1 X139.817 Y64.296 E128.26358
G1 X140.037 Y64.418 E128.28319
G1 X140.239 Y64.568 E128.30281
G1 X140.338 Y64.672 E128.314
G1 X140.575 Y64.964 E128.34332
G1 X140.708 Y65.182 E128.36322
G1 X140.781 Y65.377 E128.37945
G1 X140.871 Y65.747 E128.40914
G1 X140.9 Y65.996 E128.42868
G1 X140.9 Y168.982 E136.45679
G1 X140.876 Y169.206 E136.47435
G1 X140.796 Y169.573 E136.50363
G1 X140.705 Y169.816 E136.52386
G1 X140.584 Y170.035 E136.54337
G1 X140.431 Y170.24 E136.56331
G1 X140.328 Y170.338 E136.57439
G1 X140.036 Y170.575 E136.60371
G1 X139.818 Y170.708 E136.62361
G1 X139.623 Y170.781 E136.63984
G1 X139.253 Y170.871 E136.66953
G1 X139.002 Y170.9 E136.68922
G1 X96.017 Y170.9 E140.04005
G1 X95.793 Y170.876 E140.05761
G1 X95.427 Y170.796 E140.08682
G1 X95.183 Y170.704 E140.10715
G1 X94.963 Y170.582 E140.12676
G1 X94.761 Y170.432 E140.14637
G1 X94.662 Y170.328 E140.15756
G1 X94.425 Y170.036 E140.18688
G1 X94.292 Y169.818 E140.20679
G1 X94.219 Y169.623 E140.22302
G1 X94.129 Y169.253 E140.2527
G1 X94.1 Y169.004 E140.27224
G1 X94.1 Y66.017 E148.30043
G1 X94.124 Y65.793 E148.318
G1 X94.204 Y65.426 E148.34728
G1 X94.296 Y65.181 E148.36768
G1 X94.534 Y64.799 E148.40276
G0 F3000 X94.942 Y65.254 E148.40276
G1 F600 X95.05 Y65.128 E148.4157
G1 X95.342 Y64.891 E148.44502
G1 X95.519 Y64.802 E148.46046
G1 X95.889 Y64.712 E148.49014
G1 X95.998 Y64.7 E148.49869
G1 X138.983 Y64.7 E151.84952
G1 X139.079 Y64.71 E151.85704
G1 X139.445 Y64.79 E151.88625
G1 X139.526 Y64.821 E151.89301
G1 X139.746 Y64.943 E151.91262
G1 X139.872 Y65.05 E151.92551
G1 X140.109 Y65.342 E151.95482
G1 X140.198 Y65.519 E151.97027
G1 X140.288 Y65.889 E151.99995
G1 X140.3 Y65.996 E152.00834
G1 X140.299 Y169.01 E160.03864
G1 X140.29 Y169.078 E160.04399
G1 X140.21 Y169.445 E160.07327
G1 X140.18 Y169.526 E160.08
G1 X140.059 Y169.745 E160.0995
G1 X139.95 Y169.872 E160.11255
G1 X139.658 Y170.109 E160.14187
G1 X139.481 Y170.198 E160.15731
G1 X139.111 Y170.288 E160.18699
G1 X139.002 Y170.3 E160.19554
G1 X95.989 Y170.299 E163.54855
G1 X95.921 Y170.29 E163.5539
G1 X95.555 Y170.21 E163.58311
G1 X95.474 Y170.179 E163.58987
G1 X95.254 Y170.057 E163.60948
G1 X95.128 Y169.95 E163.62236
G1 X94.891 Y169.658 E163.65168
G1 X94.802 Y169.481 E163.66712
G1 X94.712 Y169.111 E163.69681
G1 X94.7 Y169.004 E163.7052
G1 X94.701 Y65.989 E171.73557
G1 X94.71 Y65.921 E171.74092
G1 X94.79 Y65.554 E171.7702
G1 X94.942 Y65.254 E171.79642
G1 F2400 E163.92142
;MESH:lid.stl
G0 F3000 X97.31 Y67.31 E165.79642
G0 X97.282 Y98.718 E165.79642
G0 X98.972 Y116.291 E165.79642
G0 X136.028 Y117.051 E165.79642
G0 X139.171 Y169.346 E165.79642
G0 X139.308 Y169.621 E165.79642
;TYPE:WALL-OUTER
G1 F2400 E169.92142
G1 F600 X138.985 Y169.7 E171.82234
G1 X96.032 Y169.7 E175.17067
G1 X95.708 Y169.63 E175.19651
G1 X95.576 Y169.551 E175.20851
G1 X95.379 Y169.308 E175.23289
G1 X95.3 Y168.985 E175.25881
G1 X95.3 Y66.032 E183.28435
G1 X95.37 Y65.708 E183.31019
G1 X95.449 Y65.576 E183.32218
G1 X95.692 Y65.379 E183.34657
G1 X96.015 Y65.3 E183.37249
G1 X138.968 Y65.3 E186.72082
G1 X139.292 Y65.37 E186.74666
G1 X139.424 Y65.449 E186.75866
G1 X139.621 Y65.692 E186.78304
G1 X139.7 Y66.015 E186.80896
G1 X139.7 Y168.967 E194.83443
G1 X139.63 Y169.292 E194.86034
G1 X139.551 Y169.424 E194.87233
G1 X139.308 Y169.621 E194.89672
G0 F3000 X139.015 Y169.03 E194.89672
G1 F2400 E187.02172
G0 F3000 X136.028 Y133.63 E188.89672
G0 X98.972 Y132.87 E188.89672
G0 X98.9 Y102.8 E188.89672
G0 X99.2 Y102.8 E188.89672
G1 F2400 E193.02172
G1 F600 X135.8 Y102.8 E197.74982
G1 X135.8 Y100.7 E197.91352
G1 X99.2 Y100.7 E200.76661
G1 X99.2 Y102.8 E200.93032
G1 F2400 E193.05532
G0 F3000 X98.9 Y102.8 E194.93032
G0 X98.9 Y106.116 E194.93032
G0 X99.2 Y106.116 E194.93032
G1 F2400 E199.05532
G1 F600 X135.8 Y106.116 E203.78341
G1 X135.8 Y104.016 E203.94711
G1 X99.2 Y104.016 E206.80021
G1 X99.2 Y106.116 E206.96391
G1 F2400 E199.08891
G0 F3000 X98.9 Y106.116 E200.96391
G0 X98.9 Y109.432 E200.96391
G0 X99.2 Y109.432 E200.96391
G1 F2400 E205.08891
G1 F600 X135.8 Y109.432 E209.81701
G1 X135.8 Y107.332 E209.98071
G1 X99.2 Y107.332 E212.83381
G1 X99.2 Y109.432 E212.99751
G1 F2400 E205.12251
G0 F3000 X98.9 Y109.432 E206.99751
G0 X98.9 Y112.747 E206.99751
G0 X99.2 Y112.747 E206.99751
G1 F2400 E211.12251
G1 F600 X135.8 Y112.747 E215.8506
G1 X135.8 Y110.647 E216.01431
G1 X99.2 Y110.647 E218.8674
G1 X99.2 Y112.747 E219.0311
G1 F2400 E211.1561
G0 F3000 X98.9 Y112.747 E213.0311
G0 X98.9 Y116.063 E213.0311
G0 X99.2 Y116.063 E213.0311
G1 F2400 E217.1561
G1 F600 X135.8 Y116.063 E221.8842
G1 X135.8 Y113.963 E222.0479
G1 X99.2 Y113.963 E224.901
G1 X99.2 Y116.063 E225.0647
G1 F2400 E217.1897
G0 F3000 X98.9 Y116.063 E219.0647
G0 X98.9 Y119.379 E219.0647
G0 X99.2 Y119.379 E219.0647
G1 F2400 E223.1897
G1 F600 X135.8 Y119.379 E227.9178
G1 X135.8 Y117.279 E228.0815
G1 X99.2 Y117.279 E230.9346
G1 X99.2 Y119.379 E231.0983
G1 F2400 E223.2233
