;FLAVOR:Marlin
;TIME:8793
;Filament used: 3.32665m
;Layer height: 0.16
;MINX:91.1
;MINY:61.1
;MINZ:0.2
;MAXX:143.9
;MAXY:173.9
;MAXZ:2.48
;Generated with Cura_SteamEngine 4.8.0
M140 S90
M105
M190 S90
M104 S240
M105
M109 S240
M82 ;absolute extrusion mode
; Ender 3 Custom Start G-code
G92 E0 ; Reset Extruder
G28 ; Home all axes
G1 Z2.0 F3000 ; Move Z Axis up little to prevent scratching of Heat Bed
G1 X0.1 Y20 Z0.3 F5000.0 ; Move to start position
G1 X0.1 Y200.0 Z0.3 F1500.0 E15 ; Draw the first line
G1 X0.4 Y200.0 Z0.3 F5000.0 ; Move to side a little
G1 X0.4 Y20 Z0.3 F1500.0 E30 ; Draw the second line
G92 E0 ; Reset Extruder
G1 Z2.0 F3000 ; Move Z Axis up little to prevent scratching of Heat Bed
G1 X5 Y20 Z0.3 F5000.0 ; Move over to prevent blob squish
G92 E0
G92 E0
G1 F2400 E-6
;LAYER_COUNT:14
;LAYER:0
M107
G0 F3000 X92.099 Y63.04 Z0.2
;TYPE:SKIRT
G1 F2400 E0
G1 F600 X92.301 Y62.795 E0.03564
G1 X92.336 Y62.756 E0.04153
G1 X92.781 Y62.333 E0.11045
G1 X93.073 Y62.096 E0.15266
G1 X93.763 Y61.648 E0.24501
G1 X93.822 Y61.618 E0.25244
G1 X94.337 Y61.401 E0.31517
G1 X94.668 Y61.304 E0.35389
G1 X95.038 Y61.214 E0.39664
G1 X95.552 Y61.125 E0.45519
G1 X95.59 Y61.121 E0.45948
G1 X95.998 Y61.1 E0.50534
G1 X138.983 Y61.1 E5.33053
G1 X139.379 Y61.12 E5.37504
G1 X139.848 Y61.193 E5.42832
G1 X140.214 Y61.273 E5.47038
G1 X140.749 Y61.431 E5.533
G1 X141.272 Y61.672 E5.59764
G1 X141.492 Y61.794 E5.62588
G1 X141.96 Y62.099 E5.68858
G1 X142.201 Y62.299 E5.72374
G1 X142.239 Y62.333 E5.72946
G1 X142.667 Y62.781 E5.79901
G1 X142.904 Y63.073 E5.84123
G1 X143.352 Y63.763 E5.93358
G1 X143.382 Y63.822 E5.94101
G1 X143.599 Y64.337 E6.00374
G1 X143.696 Y64.668 E6.04246
G1 X143.786 Y65.038 E6.0852
G1 X143.872 Y65.529 E6.14116
G1 X143.876 Y65.565 E6.14522
G1 X143.9 Y65.996 E6.19368
G1 X143.9 Y168.982 E17.75416
G1 X143.88 Y169.378 E17.79867
G1 X143.808 Y169.845 E17.85171
G1 X143.728 Y170.212 E17.89388
G1 X143.57 Y170.747 E17.9565
G1 X143.331 Y171.267 E18.02074
G1 X143.21 Y171.486 E18.04883
G1 X142.905 Y171.954 E18.11153
G1 X142.699 Y172.205 E18.14798
G1 X142.664 Y172.244 E18.15386
G1 X142.219 Y172.667 E18.22278
G1 X141.927 Y172.904 E18.265
G1 X141.237 Y173.352 E18.35735
G1 X141.178 Y173.382 E18.36478
G1 X140.663 Y173.599 E18.42751
G1 X140.332 Y173.696 E18.46623
G1 X139.962 Y173.786 E18.50897
G1 X139.448 Y173.875 E18.56753
G1 X139.41 Y173.879 E18.57182
G1 X139.002 Y173.9 E18.61768
G1 X96.017 Y173.9 E23.44287
G1 X95.621 Y173.88 E23.48738
G1 X95.152 Y173.807 E23.54066
G1 X94.786 Y173.727 E23.58272
G1 X94.251 Y173.569 E23.64533
G1 X93.728 Y173.328 E23.70998
G1 X93.508 Y173.206 E23.73822
G1 X93.04 Y172.901 E23.80092
G1 X92.799 Y172.701 E23.83608
G1 X92.761 Y172.667 E23.8418
G1 X92.333 Y172.219 E23.91135
G1 X92.096 Y171.927 E23.95357
G1 X91.648 Y171.237 E24.04591
G1 X91.618 Y171.178 E24.05334
G1 X91.401 Y170.663 E24.11608
G1 X91.304 Y170.332 E24.1548
G1 X91.214 Y169.962 E24.19754
G1 X91.128 Y169.471 E24.2535
G1 X91.124 Y169.435 E24.25756
G1 X91.1 Y169.004 E24.30602
G1 X91.1 Y66.017 E35.86661
G1 X91.12 Y65.621 E35.91112
G1 X91.192 Y65.154 E35.96416
G1 X91.272 Y64.787 E36.00633
G1 X91.43 Y64.252 E36.06895
G1 X91.673 Y63.725 E36.13409
G1 X91.794 Y63.507 E36.16208
G1 X92.099 Y63.04 E36.22469
G0 F3000 X92.748 Y63.196
G1 F600 X92.783 Y63.157 E36.23057
G1 X93.159 Y62.799 E36.28885
G1 X93.451 Y62.562 E36.33107
G1 X94.035 Y62.182 E36.40928
G1 X94.094 Y62.152 E36.41671
G1 X94.81 Y61.887 E36.50241
G1 X95.18 Y61.797 E36.54515
G1 X95.615 Y61.722 E36.5947
G1 X95.653 Y61.718 E36.59899
G1 X95.998 Y61.7 E36.63777
G1 X138.983 Y61.7 E41.46297
G1 X139.323 Y61.717 E41.50118
G1 X139.72 Y61.779 E41.54629
G1 X140.086 Y61.859 E41.58834
G1 X140.577 Y62.007 E41.64591
G1 X140.981 Y62.197 E41.69602
G1 X141.201 Y62.319 E41.72426
G1 X141.801 Y62.746 E41.80693
G1 X141.839 Y62.78 E41.81265
G1 X142.201 Y63.159 E41.87148
G1 X142.438 Y63.451 E41.9137
G1 X142.818 Y64.035 E41.99191
G1 X142.848 Y64.094 E41.99934
G1 X143.113 Y64.81 E42.08504
G1 X143.203 Y65.18 E42.12779
G1 X143.276 Y65.596 E42.1752
G1 X143.28 Y65.632 E42.17926
G1 X143.3 Y65.996 E42.22018
G1 X143.3 Y168.982 E53.78067
G1 X143.283 Y169.322 E53.81888
G1 X143.221 Y169.717 E53.86376
G1 X143.141 Y170.084 E53.90593
G1 X142.993 Y170.575 E53.96349
G1 X142.805 Y170.977 E54.01331
G1 X142.684 Y171.196 E54.0414
G1 X142.252 Y171.804 E54.12512
G1 X142.217 Y171.843 E54.131
G1 X141.841 Y172.201 E54.18928
G1 X141.549 Y172.438 E54.2315
G1 X140.965 Y172.818 E54.30971
G1 X140.906 Y172.848 E54.31714
G1 X140.19 Y173.113 E54.40284
G1 X139.82 Y173.203 E54.44558
G1 X139.385 Y173.278 E54.49513
G1 X139.347 Y173.282 E54.49942
G1 X139.002 Y173.3 E54.5382
G1 X96.017 Y173.3 E59.3634
G1 X95.677 Y173.283 E59.40161
G1 X95.28 Y173.221 E59.44671
G1 X94.914 Y173.141 E59.48877
G1 X94.423 Y172.993 E59.54634
G1 X94.019 Y172.803 E59.59645
G1 X93.799 Y172.681 E59.62469
G1 X93.199 Y172.254 E59.70736
G1 X93.161 Y172.22 E59.71308
G1 X92.799 Y171.841 E59.77191
G1 X92.562 Y171.549 E59.81413
G1 X92.182 Y170.965 E59.89234
G1 X92.152 Y170.906 E59.89977
G1 X91.887 Y170.19 E59.98547
G1 X91.797 Y169.82 E60.02821
G1 X91.724 Y169.404 E60.07563
G1 X91.72 Y169.368 E60.07969
G1 X91.7 Y169.004 E60.12061
G1 X91.7 Y66.017 E71.68121
G1 X91.717 Y65.677 E71.71942
G1 X91.779 Y65.282 E71.7643
G1 X91.859 Y64.915 E71.80647
G1 X92.007 Y64.424 E71.86403
G1 X92.198 Y64.017 E71.9145
G1 X92.319 Y63.799 E71.94249
G1 X92.748 Y63.196 E72.02556
G0 F3000 X93.195 Y63.597
G1 F600 X93.23 Y63.558 E72.03144
G1 X93.537 Y63.265 E72.07908
G1 X93.829 Y63.028 E72.1213
G1 X94.307 Y62.717 E72.18531
G1 X94.366 Y62.687 E72.19274
G1 X94.952 Y62.47 E72.26289
G1 X95.322 Y62.38 E72.30563
G1 X95.677 Y62.319 E72.34607
G1 X95.715 Y62.315 E72.35035
G1 X95.998 Y62.3 E72.38217
G1 X138.983 Y62.3 E77.20736
G1 X139.267 Y62.315 E77.23928
G1 X139.592 Y62.365 E77.2762
G1 X139.958 Y62.445 E77.31825
G1 X140.401 Y62.583 E77.37034
G1 X140.69 Y62.722 E77.40633
G1 X140.91 Y62.844 E77.43457
G1 X141.401 Y63.193 E77.50219
G1 X141.439 Y63.227 E77.50792
G1 X141.735 Y63.537 E77.55603
G1 X141.972 Y63.829 E77.59825
G1 X142.283 Y64.307 E77.66226
G1 X142.313 Y64.366 E77.66969
G1 X142.53 Y64.952 E77.73984
G1 X142.62 Y65.322 E77.78258
G1 X142.679 Y65.662 E77.82132
G1 X142.683 Y65.698 E77.82538
G1 X142.7 Y65.996 E77.85889
G1 X142.7 Y168.982 E89.41937
G1 X142.685 Y169.266 E89.4513
G1 X142.635 Y169.589 E89.48799
G1 X142.555 Y169.956 E89.53015
G1 X142.418 Y170.4 E89.58231
G1 X142.28 Y170.687 E89.61806
G1 X142.159 Y170.906 E89.64614
G1 X141.805 Y171.403 E89.71464
G1 X141.77 Y171.442 E89.72052
G1 X141.463 Y171.735 E89.76816
G1 X141.171 Y171.972 E89.81037
G1 X140.693 Y172.283 E89.87439
G1 X140.634 Y172.313 E89.88182
G1 X140.048 Y172.53 E89.95196
G1 X139.678 Y172.62 E89.99471
G1 X139.323 Y172.681 E90.03514
G1 X139.285 Y172.685 E90.03943
G1 X139.002 Y172.7 E90.07124
G1 X96.017 Y172.7 E94.89644
G1 X95.733 Y172.685 E94.92836
G1 X95.408 Y172.635 E94.96527
G1 X95.042 Y172.555 E95.00733
G1 X94.599 Y172.417 E95.05941
G1 X94.31 Y172.278 E95.09541
G1 X94.09 Y172.156 E95.12365
G1 X93.599 Y171.807 E95.19127
G1 X93.561 Y171.773 E95.19699
G1 X93.265 Y171.463 E95.24511
G1 X93.028 Y171.171 E95.28732
G1 X92.717 Y170.693 E95.35134
G1 X92.687 Y170.634 E95.35877
G1 X92.47 Y170.048 E95.42891
G1 X92.38 Y169.678 E95.47166
G1 X92.321 Y169.338 E95.51039
G1 X92.317 Y169.302 E95.51446
G1 X92.3 Y169.004 E95.54797
G1 X92.3 Y66.017 E107.10856
G1 X92.315 Y65.733 E107.14048
G1 X92.365 Y65.41 E107.17717
G1 X92.445 Y65.043 E107.21934
G1 X92.582 Y64.599 E107.2715
G1 X92.722 Y64.308 E107.30775
G1 X92.843 Y64.09 E107.33573
G1 X93.195 Y63.597 E107.40373
G0 F3000 X93.641 Y63.997
G1 F600 X93.676 Y63.958 E107.40962
G1 X93.916 Y63.73 E107.44678
G1 X94.208 Y63.493 E107.48899
G1 X94.579 Y63.252 E107.53865
G1 X94.638 Y63.222 E107.54608
G1 X95.094 Y63.053 E107.60067
G1 X95.464 Y62.963 E107.64342
G1 X95.74 Y62.916 E107.67484
G1 X95.998 Y62.9 E107.70386
G1 X138.983 Y62.9 E112.52905
G1 X139.211 Y62.912 E112.55468
G1 X139.463 Y62.951 E112.58331
G1 X139.829 Y63.031 E112.62536
G1 X140.399 Y63.246 E112.69375
G1 X140.619 Y63.368 E112.72199
G1 X141.001 Y63.64 E112.77463
G1 X141.039 Y63.674 E112.78035
G1 X141.27 Y63.916 E112.8179
G1 X141.507 Y64.208 E112.86012
G1 X141.748 Y64.579 E112.90978
G1 X141.778 Y64.638 E112.91721
G1 X141.947 Y65.094 E112.9718
G1 X142.037 Y65.464 E113.01455
G1 X142.083 Y65.728 E113.04463
G1 X142.1 Y65.996 E113.07477
G1 X142.1 Y168.982 E124.63525
G1 X142.088 Y169.21 E124.66088
G1 X142.049 Y169.461 E124.6894
G1 X141.969 Y169.828 E124.73156
G1 X141.755 Y170.397 E124.7998
G1 X141.634 Y170.616 E124.82789
G1 X141.359 Y171.003 E124.88118
G1 X141.324 Y171.042 E124.88706
G1 X141.084 Y171.27 E124.92422
G1 X140.792 Y171.507 E124.96644
G1 X140.421 Y171.748 E125.0161
G1 X140.362 Y171.778 E125.02353
G1 X139.906 Y171.947 E125.07812
G1 X139.536 Y172.037 E125.12086
G1 X139.26 Y172.084 E125.15229
G1 X139.002 Y172.1 E125.18131
G1 X96.017 Y172.1 E130.0065
G1 X95.789 Y172.088 E130.03213
G1 X95.537 Y172.049 E130.06075
G1 X95.171 Y171.969 E130.10281
G1 X94.601 Y171.754 E130.17119
G1 X94.381 Y171.632 E130.19943
G1 X93.999 Y171.36 E130.25207
G1 X93.961 Y171.326 E130.2578
G1 X93.73 Y171.084 E130.29535
G1 X93.493 Y170.792 E130.33757
G1 X93.252 Y170.421 E130.38723
G1 X93.222 Y170.362 E130.39466
G1 X93.053 Y169.906 E130.44925
G1 X92.963 Y169.536 E130.49199
G1 X92.917 Y169.272 E130.52207
G1 X92.9 Y169.004 E130.55222
G1 X92.9 Y66.017 E142.11281
G1 X92.912 Y65.789 E142.13844
G1 X92.951 Y65.538 E142.16696
G1 X93.031 Y65.171 E142.20912
G1 X93.247 Y64.599 E142.27775
G1 X93.368 Y64.381 E142.30574
G1 X93.641 Y63.997 E142.35863
G0 F3000 X94.088 Y64.398
G1 F600 X94.294 Y64.196 E142.39102
G1 X94.586 Y63.959 E142.43323
G1 X94.851 Y63.787 E142.4687
G1 X94.91 Y63.757 E142.47613
G1 X95.235 Y63.636 E142.51505
G1 X95.605 Y63.546 E142.5578
G1 X95.998 Y63.5 E142.60222
G1 X138.983 Y63.5 E147.42741
G1 X139.335 Y63.538 E147.46715
G1 X139.701 Y63.618 E147.50921
G1 X140.108 Y63.771 E147.55801
G1 X140.328 Y63.893 E147.58625
G1 X140.601 Y64.087 E147.62385
G1 X140.804 Y64.294 E147.65639
G1 X141.041 Y64.586 E147.69861
G1 X141.213 Y64.851 E147.73407
G1 X141.243 Y64.91 E147.7415
G1 X141.364 Y65.235 E147.78043
G1 X141.454 Y65.605 E147.82318
G1 X141.5 Y65.996 E147.86737
G1 X141.5 Y168.982 E159.42785
G1 X141.463 Y169.333 E159.46747
G1 X141.383 Y169.7 E159.50964
G1 X141.23 Y170.106 E159.55834
G1 X141.109 Y170.325 E159.58643
G1 X140.912 Y170.602 E159.62458
G1 X140.706 Y170.804 E159.65697
G1 X140.414 Y171.041 E159.69918
G1 X140.149 Y171.213 E159.73465
G1 X140.09 Y171.243 E159.74208
G1 X139.765 Y171.364 E159.78101
G1 X139.395 Y171.454 E159.82375
G1 X139.002 Y171.5 E159.86817
G1 X96.017 Y171.5 E164.69336
G1 X95.665 Y171.462 E164.7331
G1 X95.299 Y171.382 E164.77516
G1 X94.892 Y171.229 E164.82397
G1 X94.672 Y171.107 E164.8522
G1 X94.399 Y170.913 E164.8898
G1 X94.196 Y170.706 E164.92234
G1 X93.959 Y170.414 E164.96456
G1 X93.787 Y170.149 E165.00002
G1 X93.757 Y170.09 E165.00745
G1 X93.636 Y169.765 E165.04638
G1 X93.546 Y169.395 E165.08913
G1 X93.5 Y169.004 E165.13332
G1 X93.5 Y66.017 E176.69392
G1 X93.537 Y65.666 E176.73353
G1 X93.617 Y65.299 E176.7757
G1 X93.771 Y64.89 E176.82476
G1 X93.892 Y64.672 E176.85274
G1 X94.088 Y64.398 E176.89056
G0 F3000 X94.534 Y64.799
G1 F600 X94.672 Y64.662 E176.91239
G1 X94.964 Y64.425 E176.95461
G1 X95.182 Y64.292 E176.98327
G1 X95.377 Y64.219 E177.00664
G1 X95.747 Y64.129 E177.04939
G1 X95.998 Y64.1 E177.07775
G1 X138.983 Y64.1 E181.90294
G1 X139.207 Y64.124 E181.92823
G1 X139.573 Y64.204 E181.97029
G1 X139.817 Y64.296 E181.99956
G1 X140.037 Y64.418 E182.0278
G1 X140.239 Y64.568 E182.05604
G1 X140.338 Y64.672 E182.07216
G1 X140.575 Y64.964 E182.11438
G1 X140.708 Y65.182 E182.14304
G1 X140.781 Y65.377 E182.16641
G1 X140.871 Y65.747 E182.20916
G1 X140.9 Y65.996 E182.2373
G1 X140.9 Y168.982 E193.79778
G1 X140.876 Y169.206 E193.82307
G1 X140.796 Y169.573 E193.86523
G1 X140.705 Y169.816 E193.89436
G1 X140.584 Y170.035 E193.92245
G1 X140.431 Y170.24 E193.95116
G1 X140.328 Y170.338 E193.96712
G1 X140.036 Y170.575 E194.00934
G1 X139.818 Y170.708 E194.038
G1 X139.623 Y170.781 E194.06138
G1 X139.253 Y170.871 E194.10412
G1 X139.002 Y170.9 E194.13248
G1 X96.017 Y170.9 E198.95768
G1 X95.793 Y170.876 E198.98297
G1 X95.427 Y170.796 E199.02502
G1 X95.183 Y170.704 E199.05429
G1 X94.963 Y170.582 E199.08253
G1 X94.761 Y170.432 E199.11077
G1 X94.662 Y170.328 E199.12689
G1 X94.425 Y170.036 E199.16911
G1 X94.292 Y169.818 E199.19777
G1 X94.219 Y169.623 E199.22115
G1 X94.129 Y169.253 E199.26389
G1 X94.1 Y169.004 E199.29203
G1 X94.1 Y66.017 E210.85263
G1 X94.124 Y65.793 E210.87791
G1 X94.204 Y65.426 E210.92008
G1 X94.296 Y65.181 E210.94946
G1 X94.534 Y64.799 E210.99998
G0 F3000 X94.942 Y65.254
G1 F600 X95.05 Y65.128 E211.01861
G1 X95.342 Y64.891 E211.06082
G1 X95.519 Y64.802 E211.08306
G1 X95.889 Y64.712 E211.12581
G1 X95.998 Y64.7 E211.13812
G1 X138.983 Y64.7 E215.96331
G1 X139.079 Y64.71 E215.97414
G1 X139.445 Y64.79 E216.0162
G1 X139.526 Y64.821 E216.02593
G1 X139.746 Y64.943 E216.05417
G1 X139.872 Y65.05 E216.07273
G1 X140.109 Y65.342 E216.11494
G1 X140.198 Y65.519 E216.13718
G1 X140.288 Y65.889 E216.17993
G1 X140.3 Y65.996 E216.19201
G1 X140.299 Y169.01 E227.75564
G1 X140.29 Y169.078 E227.76334
G1 X140.21 Y169.445 E227.8055
G1 X140.18 Y169.526 E227.8152
G1 X140.059 Y169.745 E227.84329
G1 X139.95 Y169.872 E227.86207
G1 X139.658 Y170.109 E227.90429
G1 X139.481 Y170.198 E227.92653
G1 X139.111 Y170.288 E227.96927
G1 X139.002 Y170.3 E227.98158
G1 X95.989 Y170.299 E232.80992
G1 X95.921 Y170.29 E232.81762
G1 X95.555 Y170.21 E232.85967
G1 X95.474 Y170.179 E232.86941
G1 X95.254 Y170.057 E232.89765
G1 X95.128 Y169.95 E232.9162
G1 X94.891 Y169.658 E232.95842
G1 X94.802 Y169.481 E232.98066
G1 X94.712 Y169.111 E233.0234
G1 X94.7 Y169.004 E233.03549
G1 X94.701 Y65.989 E244.59923
G1 X94.71 Y65.921 E244.60693
G1 X94.79 Y65.554 E244.64909
G1 X94.942 Y65.254 E244.68684
G1 F2400 E238.68684
;MESH:lid.stl
G0 F3000 X97.31 Y67.31
G0 X137.718 Y67.282
G0 X139.171 Y169.346
G0 X139.308 Y169.621
;TYPE:WALL-OUTER
G1 F2400 E244.68684
G1 F600 X138.985 Y169.7 E244.71173
G1 X96.032 Y169.7 E247.92613
G1 X95.708 Y169.63 E247.95093
G1 X95.576 Y169.551 E247.96245
G1 X95.379 Y169.308 E247.98586
G1 X95.3 Y168.985 E248.01074
G1 X95.3 Y66.032 E255.71526
G1 X95.37 Y65.708 E255.74007
G1 X95.449 Y65.576 E255.75158
G1 X95.692 Y65.379 E255.77499
G1 X96.015 Y65.3 E255.79987
G1 X138.968 Y65.3 E259.01427
G1 X139.292 Y65.37 E259.03908
G1 X139.424 Y65.449 E259.05059
G1 X139.621 Y65.692 E259.074
G1 X139.7 Y66.015 E259.09889
G1 X139.7 Y168.967 E266.80333
G1 X139.63 Y169.292 E266.82821
G1 X139.551 Y169.424 E266.83972
G1 X139.308 Y169.621 E266.86313
G0 F3000 X139.015 Y169.03
G0 X139.035 Y169.07
;TYPE:WALL-INNER
G1 F600 X138.912 Y169.1 E266.87261
G1 X96.094 Y169.1 E270.0769
G1 X95.93 Y169.035 E270.09011
G1 X95.9 Y168.912 E270.09958
G1 X95.9 Y66.094 E277.794
G1 X95.965 Y65.93 E277.8072
G1 X96.088 Y65.9 E277.81667
G1 X138.906 Y65.9 E281.02097
G1 X139.07 Y65.965 E281.03417
G1 X139.1 Y66.088 E281.04365
G1 X139.1 Y168.901 E288.73769
G1 X139.035 Y169.07 E288.75124
G0 F3000 X138.5 Y168.5
G1 F600 X96.5 Y168.5 E291.89432
G1 X96.5 Y66.5 E299.52752
G1 X138.5 Y66.5 E302.67061
G1 X138.5 Y168.5 E310.30381
G0 F3000 X137.9 Y167.9
G1 F600 X97.1 Y167.9 E313.35709
G1 X97.1 Y67.1 E320.90049
G1 X137.9 Y67.1 E323.95377
G1 X137.9 Y167.9 E331.49717
G0 F3000 X137.31 Y167.31
;TYPE:SKIN
G1 F600 X97.69 Y167.31 E334.46214
G1 X97.69 Y67.69 E341.91723
G1 X137.31 Y67.69 E344.88221
G1 X137.31 Y167.31 E352.3373
G1 F2400 E346.3373
G0 F3000 X137.79 Y167.31
G0 X137.718 Y167.718
G0 X98.318 Y167.79
G0 X98.318 Y167.049
G1 F2400 E352.3373
G1 F600 X97.949 Y166.68 E352.37635
G0 F3000 X97.949 Y165.832
G1 F600 X99.167 Y167.049 E352.50521
G0 F3000 X100.016 Y167.049
G1 F600 X97.949 Y164.983 E352.72391
G0 F3000 X97.949 Y164.135
G1 F600 X100.864 Y167.049 E353.03236
G0 F3000 X101.713 Y167.049
G1 F600 X97.949 Y163.286 E353.43066
G0 F3000 X97.949 Y162.437
G1 F600 X102.561 Y167.049 E353.91876
G0 F3000 X103.41 Y167.049
G1 F600 X97.949 Y161.589 E354.49667
G0 F3000 X97.949 Y160.74
G1 F600 X104.258 Y167.049 E355.16437
