;FLAVOR:Marlin
;TIME:10092
;Filament used: 1.36761m
;Layer height: 0.16
;MINX:93.35
;MINY:72.6
;MINZ:0.2
;MAXX:141.65
;MAXY:162.4
;MAXZ:1.4
;Generated with Cura_SteamEngine 4.8.0
M140 S75
M105
M190 S75
M104 S240
M105
M109 S240
M82 ;absolute extrusion mode
; Ender 3 Custom Start G-code
G92 E0 ; Reset Extruder
G28 ; Home all axes
G1 Z2.0 F3000 ; Move Z Axis up little to prevent scratching of Heat Bed
G1 X5 Y20 Z0.3 F5000.0 ; Move over to prevent blob squish
G92 E0
G92 E0
G1 F2400 E-6
;LAYER_COUNT:8
;LAYER:0
M107
G0 F3000 X93.973 Y74.562 Z0.2
;TYPE:SKIRT
G1 F2400 E0
;FLOW_RATE_COMPENSATED_OFFSET = 1.875000
G1 F600 X94.492 Y73.918 E1.93948
G1 X94.668 Y73.742 E1.95888
G1 X95.09 Y73.377 E2.00237
G1 X95.56 Y73.075 E2.04592
G1 X96.068 Y72.844 E2.08942
G1 X96.604 Y72.688 E2.13294
G1 X97.426 Y72.6 E2.19738
G1 X137.574 Y72.6 E5.32706
G1 X138.131 Y72.64 E5.37059
G1 X138.676 Y72.759 E5.41408
G1 X139.199 Y72.955 E5.45762
G1 X139.688 Y73.223 E5.50108
G1 X140.332 Y73.742 E5.56556
G1 X140.508 Y73.918 E5.58496
G1 X140.873 Y74.34 E5.62846
G1 X141.175 Y74.81 E5.67201
G1 X141.406 Y75.318 E5.71551
G1 X141.562 Y75.854 E5.75903
G1 X141.65 Y76.676 E5.82347
G1 X141.65 Y158.324 E12.18821
G1 X141.61 Y158.881 E12.23174
G1 X141.491 Y159.426 E12.27523
G1 X141.295 Y159.949 E12.31877
G1 X141.027 Y160.438 E12.36224
G1 X140.508 Y161.082 E12.42671
G1 X140.332 Y161.258 E12.44611
G1 X139.91 Y161.623 E12.48961
G1 X139.44 Y161.925 E12.53316
G1 X138.932 Y162.156 E12.57666
G1 X138.396 Y162.312 E12.62018
G1 X137.574 Y162.4 E12.68462
G1 X97.426 Y162.4 E15.8143
G1 X96.869 Y162.36 E15.85783
G1 X96.324 Y162.241 E15.90131
G1 X95.801 Y162.045 E15.94485
G1 X95.312 Y161.777 E15.98832
G1 X94.668 Y161.258 E16.0528
G1 X94.492 Y161.082 E16.0722
G1 X94.127 Y160.66 E16.11569
G1 X93.825 Y160.19 E16.15924
G1 X93.594 Y159.682 E16.20275
G1 X93.438 Y159.146 E16.24626
G1 X93.35 Y158.324 E16.31071
G1 X93.35 Y76.676 E22.67545
G1 X93.39 Y76.119 E22.71898
G1 X93.509 Y75.574 E22.76247
G1 X93.705 Y75.051 E22.806
G1 X93.973 Y74.562 E22.84947
G0 F3000 X94.57 Y74.751 E22.84947
G1 F600 X94.917 Y74.343 E22.89123
G1 X95.093 Y74.167 E22.91063
G1 X95.483 Y73.833 E22.95066
G1 X95.92 Y73.564 E22.99066
G1 X96.394 Y73.366 E23.0307
G1 X96.892 Y73.243 E23.07069
G1 X97.426 Y73.2 E23.11245
G1 X137.574 Y73.2 E26.24213
G1 X138.086 Y73.24 E26.28216
G1 X138.585 Y73.359 E26.32215
G1 X139.06 Y73.554 E26.36218
G1 X139.499 Y73.82 E26.40219
G1 X139.907 Y74.167 E26.44394
G1 X140.083 Y74.343 E26.46334
G1 X140.417 Y74.733 E26.50337
G1 X140.686 Y75.17 E26.54337
G1 X140.884 Y75.644 E26.58342
G1 X141.007 Y76.142 E26.62341
G1 X141.05 Y76.676 E26.66517
G1 X141.05 Y158.324 E33.02991
G1 X141.01 Y158.836 E33.06994
G1 X140.891 Y159.335 E33.10993
G1 X140.696 Y159.81 E33.14996
G1 X140.43 Y160.249 E33.18997
G1 X140.083 Y160.657 E33.23173
G1 X139.907 Y160.833 E33.25113
G1 X139.517 Y161.167 E33.29116
G1 X139.08 Y161.436 E33.33116
G1 X138.606 Y161.634 E33.3712
G1 X138.108 Y161.757 E33.41119
G1 X137.574 Y161.8 E33.45295
G1 X97.426 Y161.8 E36.58263
G1 X96.914 Y161.76 E36.62266
G1 X96.415 Y161.641 E36.66265
G1 X95.94 Y161.446 E36.70268
G1 X95.501 Y161.18 E36.74269
G1 X95.093 Y160.833 E36.78444
G1 X94.917 Y160.657 E36.80384
G1 X94.583 Y160.267 E36.84387
G1 X94.314 Y159.83 E36.88387
G1 X94.116 Y159.356 E36.92392
G1 X93.993 Y158.858 E36.96391
G1 X93.95 Y158.324 E37.00567
G1 X93.95 Y76.676 E43.37041
G1 X93.99 Y76.164 E43.41044
G1 X94.109 Y75.665 E43.45043
G1 X94.304 Y75.19 E43.49046
G1 X94.57 Y74.751 E43.53047
G0 F3000 X94.902 Y75.342 E43.53047
G1 F600 X95.165 Y74.96 E43.56663
G1 X95.341 Y74.767 E43.58699
G1 X95.517 Y74.591 E43.60639
G1 X95.872 Y74.292 E43.64257
G1 X96.273 Y74.058 E43.67876
G1 X96.709 Y73.897 E43.715
G1 X97.165 Y73.813 E43.75114
G1 X97.426 Y73.8 E43.77151
G1 X137.574 Y73.8 E46.90119
G1 X138.037 Y73.84 E46.93741
G1 X138.486 Y73.959 E46.97362
G1 X138.908 Y74.152 E47.0098
G1 X139.29 Y74.415 E47.04595
G1 X139.483 Y74.591 E47.06631
G1 X139.659 Y74.767 E47.08571
G1 X139.958 Y75.122 E47.12189
G1 X140.192 Y75.523 E47.15809
G1 X140.353 Y75.959 E47.19432
G1 X140.437 Y76.415 E47.23046
G1 X140.45 Y76.676 E47.25083
G1 X140.45 Y158.324 E53.61558
G1 X140.41 Y158.787 E53.6518
G1 X140.291 Y159.236 E53.68801
G1 X140.098 Y159.658 E53.72419
G1 X139.835 Y160.04 E53.76034
G1 X139.659 Y160.233 E53.7807
G1 X139.483 Y160.409 E53.8001
G1 X139.128 Y160.708 E53.83629
G1 X138.727 Y160.942 E53.87248
G1 X138.291 Y161.103 E53.90871
G1 X137.835 Y161.187 E53.94485
G1 X137.574 Y161.2 E53.96522
G1 X97.426 Y161.2 E57.0949
G1 X96.963 Y161.16 E57.13113
G1 X96.514 Y161.041 E57.16734
G1 X96.092 Y160.848 E57.20351
G1 X95.71 Y160.585 E57.23966
G1 X95.517 Y160.409 E57.26002
G1 X95.341 Y160.233 E57.27943
G1 X95.042 Y159.878 E57.31561
G1 X94.808 Y159.477 E57.3518
G1 X94.647 Y159.041 E57.38803
G1 X94.563 Y158.585 E57.42418
G1 X94.55 Y158.324 E57.44455
G1 X94.55 Y76.676 E63.80929
G1 X94.59 Y76.213 E63.84552
G1 X94.709 Y75.764 E63.88173
G1 X94.902 Y75.342 E63.9179
G0 F3000 X95.5 Y75.515 E63.9179
G1 F600 X95.765 Y75.191 E63.95053
G1 X95.941 Y75.015 E63.96993
G1 X96.257 Y74.755 E64.00183
G1 X96.618 Y74.562 E64.03374
G1 X97.01 Y74.442 E64.0657
G1 X97.426 Y74.4 E64.09829
G1 X137.574 Y74.4 E67.22797
G1 X137.981 Y74.44 E67.25985
G1 X138.373 Y74.558 E67.29176
G1 X138.735 Y74.75 E67.3237
G1 X139.059 Y75.015 E67.35633
G1 X139.235 Y75.191 E67.37573
G1 X139.495 Y75.507 E67.40763
G1 X139.688 Y75.868 E67.43954
G1 X139.808 Y76.26 E67.4715
G1 X139.85 Y76.676 E67.50409
G1 X139.85 Y158.324 E73.86884
G1 X139.81 Y158.731 E73.90072
G1 X139.692 Y159.123 E73.93263
G1 X139.5 Y159.485 E73.96457
G1 X139.235 Y159.809 E73.9972
G1 X139.059 Y159.985 E74.0166
G1 X138.743 Y160.245 E74.0485
G1 X138.382 Y160.438 E74.08041
G1 X137.99 Y160.558 E74.11237
G1 X137.574 Y160.6 E74.14496
G1 X97.426 Y160.6 E77.27464
G1 X97.019 Y160.56 E77.30652
G1 X96.627 Y160.442 E77.33843
G1 X96.265 Y160.25 E77.37037
G1 X95.941 Y159.985 E77.403
G1 X95.765 Y159.809 E77.42241
G1 X95.505 Y159.493 E77.45431
G1 X95.312 Y159.132 E77.48622
G1 X95.192 Y158.74 E77.51817
G1 X95.15 Y158.324 E77.55077
G1 X95.15 Y76.676 E83.91551
G1 X95.19 Y76.269 E83.94739
G1 X95.308 Y75.877 E83.9793
G1 X95.5 Y75.515 E84.01124
G0 F3000 X95.907 Y76.007 E84.01124
G1 F600 X96.189 Y75.615 E84.04889
G1 X96.365 Y75.439 E84.06829
G1 X96.636 Y75.225 E84.09521
G1 X96.95 Y75.078 E84.12224
G1 X97.426 Y75 E84.15984
G1 X137.574 Y75 E87.28951
G1 X137.918 Y75.04 E87.31651
G1 X138.243 Y75.157 E87.34343
G1 X138.635 Y75.439 E87.38108
G1 X138.811 Y75.615 E87.40048
G1 X139.025 Y75.886 E87.4274
G1 X139.172 Y76.2 E87.45443
G1 X139.25 Y76.676 E87.49203
G1 X139.25 Y158.324 E93.85677
G1 X139.21 Y158.668 E93.88377
G1 X139.093 Y158.993 E93.91069
G1 X138.811 Y159.385 E93.94834
G1 X138.635 Y159.561 E93.96774
G1 X138.364 Y159.775 E93.99466
G1 X138.05 Y159.922 E94.02168
G1 X137.574 Y160 E94.05928
G1 X97.426 Y160 E97.18896
G1 X97.082 Y159.96 E97.21595
G1 X96.757 Y159.843 E97.24288
G1 X96.365 Y159.561 E97.28052
G1 X96.189 Y159.385 E97.29993
G1 X95.975 Y159.114 E97.32685
G1 X95.828 Y158.8 E97.35387
G1 X95.75 Y158.324 E97.39147
G1 X95.75 Y76.676 E103.75622
G1 X95.79 Y76.332 E103.78321
G1 X95.907 Y76.007 E103.81014
G0 F3000 X96.506 Y76.17 E103.81014
G1 F600 X96.79 Y75.864 E103.84268
G1 X97.005 Y75.705 E103.86353
G1 X97.257 Y75.616 E103.88436
G1 X97.426 Y75.6 E103.89759
G1 X137.574 Y75.6 E107.02727
G1 X137.839 Y75.64 E107.04816
G1 X138.08 Y75.756 E107.06901
G1 X138.386 Y76.04 E107.10156
G1 X138.545 Y76.255 E107.1224
G1 X138.634 Y76.507 E107.14323
G1 X138.65 Y76.676 E107.15647
G1 X138.65 Y158.324 E113.52121
G1 X138.61 Y158.589 E113.5421
G1 X138.494 Y158.83 E113.56295
G1 X138.21 Y159.136 E113.59549
G1 X137.995 Y159.295 E113.61634
G1 X137.743 Y159.384 E113.63717
G1 X137.574 Y159.4 E113.65041
G1 X97.426 Y159.4 E116.78008
G1 X97.161 Y159.36 E116.80097
G1 X96.92 Y159.244 E116.82182
G1 X96.614 Y158.96 E116.85437
G1 X96.455 Y158.745 E116.87521
G1 X96.366 Y158.493 E116.89605
G1 X96.35 Y158.324 E116.90928
G1 X96.35 Y76.676 E123.27402
G1 X96.39 Y76.411 E123.29491
G1 X96.506 Y76.17 E123.31576
G0 F3000 X97.038 Y76.464 E123.31576
G1 F600 X97.347 Y76.211 E123.34689
G1 X97.426 Y76.2 E123.35311
G1 X137.574 Y76.2 E126.48279
G1 X137.786 Y76.288 E126.50068
G1 X138.039 Y76.597 E126.53181
G1 X138.05 Y76.676 E126.53803
G1 X138.05 Y158.324 E132.90277
G1 X137.962 Y158.536 E132.92067
G1 X137.653 Y158.789 E132.9518
G1 X137.574 Y158.8 E132.95801
G1 X97.426 Y158.8 E136.08769
G1 X97.214 Y158.712 E136.10558
G1 X96.961 Y158.403 E136.13671
G1 X96.95 Y158.324 E136.14293
G1 X96.95 Y76.676 E142.50767
G1 X97.038 Y76.464 E142.52557
G1 F2400 E134.65057
;MESH:separator.stl
G0 F3000 X96.585 Y76.464 E136.52557
G0 X99.615 Y83.024 E136.52557
G0 X98.554 Y82.585 E136.52557
G0 X98.518 Y87.43 E136.52557
G0 X101.956 Y90.868 E136.52557
G0 X106.816 Y92.132 E136.52557
G0 X110.254 Y95.57 E136.52557
G0 X110.254 Y100.43 E136.52557
G0 X108.794 Y104.5 E136.52557
G0 X111.632 Y108.57 E136.52557
G0 X111.632 Y113.43 E136.52557
G0 X115.07 Y116.868 E136.52557
G0 X119.93 Y118.132 E136.52557
G0 X123.368 Y121.57 E136.52557
G0 X123.368 Y126.43 E136.52557
G0 X121.908 Y130.5 E136.52557
G0 X124.746 Y134.57 E136.52557
G0 X124.746 Y139.43 E136.52557
G0 X128.184 Y142.868 E136.52557
G0 X133.044 Y144.132 E136.52557
G0 X136.482 Y147.57 E136.52557
G0 X137.25 Y158.03 E136.52557
G0 X137.45 Y158.2 E136.52557
;TYPE:WALL-OUTER
G1 F2400 E140.65057
G1 F600 X97.55 Y158.2 E145.63591
G1 X97.55 Y76.8 E151.98132
G1 X137.45 Y76.8 E155.09166
G1 X137.45 Y158.2 E161.43707
G1 F2400 E153.56207
G0 F3000 X137.28 Y158.03 E155.43707
G0 X128.099 Y155.872 E155.43707
G0 X128.24 Y155.732 E155.43707
G1 F2400 E159.56207
G1 F600 X132.988 Y155.732 E161.8072
G1 X136.346 Y152.374 E162.17739
G1 X136.346 Y147.626 E162.54751
G1 X132.988 Y144.268 E162.91771
G1 X128.24 Y144.268 E163.28783
G1 X124.882 Y147.626 E163.65803
G1 X124.882 Y152.374 E164.02815
G1 X128.24 Y155.732 E164.39835
G0 F3000 X127.988 Y156.341 E164.39835
G1 F2400 E156.52335
G0 F3000 X124.746 Y152.43 E158.39835
G0 X124.746 Y147.57 E158.39835
G0 X128.099 Y142.872 E158.39835
G0 X128.24 Y142.732 E158.39835
G1 F2400 E162.52335
G1 F600 X132.988 Y142.732 E164.76847
G1 X136.346 Y139.374 E165.13866
G1 X136.346 Y134.626 E165.50879
G1 X132.988 Y131.268 E165.87898
G1 X128.24 Y131.268 E166.24911
G1 X124.882 Y134.626 E166.6193
G1 X124.882 Y139.374 E166.98942
G1 X128.24 Y142.732 E167.35962
G0 F3000 X127.988 Y143.341 E167.35962
G1 F2400 E159.48462
G0 F3000 X124.746 Y139.43 E161.35962
G0 X124.746 Y134.57 E161.35962
G0 X128.099 Y129.872 E161.35962
G0 X128.24 Y129.732 E161.35962
G1 F2400 E165.48462
G1 F600 X132.988 Y129.732 E167.72974
G1 X136.346 Y126.374 E168.09994
G1 X136.346 Y121.626 E168.47006
G1 X132.988 Y118.268 E168.84026
G1 X128.24 Y118.268 E169.21038
G1 X124.882 Y121.626 E169.58057
G1 X124.882 Y126.374 E169.9507
G1 X128.24 Y129.732 E170.32089
G0 F3000 X127.988 Y130.341 E170.32089
G1 F2400 E162.44589
G0 F3000 X124.746 Y126.43 E164.32089
G0 X124.746 Y121.57 E164.32089
G0 X128.099 Y116.872 E164.32089
G0 X128.24 Y116.732 E164.32089
G1 F2400 E168.44589
G1 F600 X132.988 Y116.732 E170.69102
G1 X136.346 Y113.374 E171.06121
G1 X136.346 Y108.626 E171.43133
G1 X132.988 Y105.268 E171.80153
G1 X128.24 Y105.268 E172.17165
G1 X124.882 Y108.626 E172.54185
G1 X124.882 Y113.374 E172.91197
G1 X128.24 Y116.732 E173.28217
G0 F3000 X127.988 Y117.341 E173.28217
G1 F2400 E165.40717
G0 F3000 X124.746 Y113.43 E167.28217
G0 X124.746 Y108.57 E167.28217
G0 X128.099 Y103.872 E167.28217
G0 X128.24 Y103.732 E167.28217
G1 F2400 E171.40717
G1 F600 X132.988 Y103.732 E173.65229
G1 X136.346 Y100.374 E174.02248
G1 X136.346 Y95.626 E174.39261
G1 X132.988 Y92.268 E174.7628
G1 X128.24 Y92.268 E175.13293
G1 X124.882 Y95.626 E175.50312
G1 X124.882 Y100.374 E175.87324
G1 X128.24 Y103.732 E176.24344
G0 F3000 X127.988 Y104.341 E176.24344
G1 F2400 E168.36844
G0 F3000 X124.746 Y100.43 E170.24344
G0 X124.746 Y95.57 E170.24344
G0 X128.099 Y90.872 E170.24344
G0 X128.24 Y90.732 E170.24344
G1 F2400 E174.36844
G1 F600 X132.988 Y90.732 E176.61356
G1 X136.346 Y87.374 E176.98376
G1 X136.346 Y82.626 E177.35388
G1 X132.988 Y79.268 E177.72408
G1 X128.24 Y79.268 E178.0942
G1 X124.882 Y82.626 E178.46439
G1 X124.882 Y87.374 E178.83452
G1 X128.24 Y90.732 E179.20471
G0 F3000 X127.988 Y91.341 E179.20471
G1 F2400 E171.32971
G0 F3000 X124.057 Y89.351 E173.20471
G0 X122.449 Y90.955 E173.20471
G0 X114.985 Y90.872 E173.20471
G0 X115.126 Y90.732 E173.20471
G1 F2400 E177.32971
G1 F600 X119.874 Y90.732 E179.57484
G1 X123.232 Y87.374 E179.94503
G1 X123.232 Y82.626 E180.31515
G1 X119.874 Y79.268 E180.68535
G1 X115.126 Y79.268 E181.05547
G1 X111.768 Y82.626 E181.42567
G1 X111.768 Y87.374 E181.79579
G1 X115.126 Y90.732 E182.16599
G0 F3000 X114.877 Y91.332 E182.16599
;TYPE:WALL-INNER
G1 F600 X120.123 Y91.332 E182.57493
G1 X123.832 Y87.623 E182.98382
G1 X123.832 Y82.377 E183.39276
G1 X120.123 Y78.668 E183.80165
G1 X114.877 Y78.668 E184.2106
G1 X111.168 Y82.377 E184.61949
G1 X111.168 Y87.623 E185.02843
G1 X114.877 Y91.332 E185.43732
G1 F2400 E177.56232
G0 F3000 X110.943 Y89.351 E179.43732
G0 X106.9 Y90.873 E179.43732
G0 X106.76 Y90.732 E179.43732
;TYPE:WALL-OUTER
G1 F2400 E183.56232
G1 F600 X110.118 Y87.374 E185.80752
G1 X110.118 Y82.626 E186.17764
G1 X106.76 Y79.268 E186.54784
G1 X102.012 Y79.268 E186.91796
G1 X98.654 Y82.626 E187.28816
G1 X98.654 Y87.374 E187.65828
G1 X102.012 Y90.732 E188.02847
G1 X106.76 Y90.732 E188.3986
G0 F3000 X107.012 Y91.341 E188.3986
G1 F2400 E180.5236
G0 F3000 X110.254 Y95.57 E182.3986
G0 X110.254 Y100.43 E182.3986
G0 X106.9 Y103.873 E182.3986
G0 X106.76 Y103.732 E182.3986
G1 F2400 E186.5236
G1 F600 X110.118 Y100.374 E188.76879
G1 X110.118 Y95.626 E189.13891
G1 X106.76 Y92.268 E189.50911
G1 X102.012 Y92.268 E189.87923
G1 X98.654 Y95.626 E190.24943
G1 X98.654 Y100.374 E190.61955
G1 X102.012 Y103.732 E190.98975
G1 X106.76 Y103.732 E191.35987
G0 F3000 X107.012 Y104.341 E191.35987
G1 F2400 E183.48487
G0 F3000 X110.943 Y102.351 E185.35987
G0 X114.985 Y103.872 E185.35987
G0 X115.126 Y103.732 E185.35987
G1 F2400 E189.48487
G1 F600 X119.874 Y103.732 E191.72999
G1 X123.232 Y100.374 E192.10019
G1 X123.232 Y95.626 E192.47031
G1 X119.874 Y92.268 E192.84051
G1 X115.126 Y92.268 E193.21063
G1 X111.768 Y95.626 E193.58082
G1 X111.768 Y100.374 E193.95095
G1 X115.126 Y103.732 E194.32114
G0 F3000 X114.877 Y104.332 E194.32114
;TYPE:WALL-INNER
G1 F600 X120.123 Y104.332 E194.73009
G1 X123.832 Y100.623 E195.13898
G1 X123.832 Y95.377 E195.54792
G1 X120.123 Y91.668 E195.95681
G1 X114.877 Y91.668 E196.1862
G1 X111.168 Y95.377 E196.59509
G1 X111.168 Y100.623 E197.00404
G1 X114.877 Y104.332 E197.41293
G1 F2400 E189.53793
G0 F3000 X111.632 Y108.57 E191.41293
G0 X111.632 Y113.43 E191.41293
G0 X114.985 Y116.872 E191.41293
G0 X115.126 Y116.732 E191.41293
;TYPE:WALL-OUTER
G1 F2400 E195.53793
G1 F600 X119.874 Y116.732 E197.78305
G1 X123.232 Y113.374 E198.15325
G1 X123.232 Y108.626 E198.52337
G1 X119.874 Y105.268 E198.89356
G1 X115.126 Y105.268 E199.26369
G1 X111.768 Y108.626 E199.63388
G1 X111.768 Y113.374 E200.00401
G1 X115.126 Y116.732 E200.3742
G0 F3000 X114.877 Y117.332 E200.3742
;TYPE:WALL-INNER
G1 F600 X120.123 Y117.332 E200.78314
G1 X123.832 Y113.623 E201.19204
G1 X123.832 Y108.377 E201.60098
G1 X120.123 Y104.668 E202.00987
G1 X114.877 Y104.668 E202.23926
G1 X111.168 Y108.377 E202.64815
G1 X111.168 Y113.623 E203.05709
G1 X114.877 Y117.332 E203.46599
G1 F2400 E195.59099
G0 F3000 X110.943 Y115.351 E197.46599
G0 X106.9 Y116.873 E197.46599
G0 X106.76 Y116.732 E197.46599
;TYPE:WALL-OUTER
G1 F2400 E201.59099
G1 F600 X110.118 Y113.374 E203.83618
G1 X110.118 Y108.626 E204.2063
G1 X106.76 Y105.268 E204.5765
G1 X102.012 Y105.268 E204.94662
G1 X98.654 Y108.626 E205.31682
G1 X98.654 Y113.374 E205.68694
G1 X102.012 Y116.732 E206.05714
G1 X106.76 Y116.732 E206.42726
G0 F3000 X107.012 Y117.341 E206.42726
G1 F2400 E198.55226
G0 F3000 X110.254 Y121.57 E200.42726
G0 X110.254 Y126.43 E200.42726
G0 X106.9 Y129.873 E200.42726
G0 X106.76 Y129.732 E200.42726
G1 F2400 E204.55226
G1 F600 X110.118 Y126.374 E206.79745
G1 X110.118 Y121.626 E207.16758
G1 X106.76 Y118.268 E207.53777
G1 X102.012 Y118.268 E207.9079
