;FLAVOR:Marlin
;TIME:5468
;Filament used: 1.30505m
;Layer height: 0.16
;MINX:92.1
;MINY:64.1
;MINZ:0.2
;MAXX:142.9
;MAXY:170.9
;MAXZ:1.4
;Generated with Cura_SteamEngine 4.8.0
M140 S90
M105
M190 S90
M104 S240
M105
M109 S240
M82 ;absolute extrusion mode
; Ender 3 Custom Start G-code
G92 E0 ; Reset Extruder
G28 ; Home all axes
G1 Z2.0 F3000 ; Move Z Axis up little to prevent scratching of Heat Bed
G1 X5 Y20 Z0.3 F5000.0 ; Move over to prevent blob squish
G92 E0
G92 E0
G1 F2400 E-6
;LAYER_COUNT:8
;LAYER:0
M107
G0 F3000 X94.61 Y66.062 Z0.2
;TYPE:SKIRT
G1 F2400 E0
G1 F600 X95.129 Y65.418 E0.09284
G1 X95.305 Y65.242 E0.12078
G1 X95.727 Y64.877 E0.18342
G1 X96.197 Y64.575 E0.24613
G1 X96.705 Y64.344 E0.30877
G1 X97.241 Y64.188 E0.37144
G1 X98.063 Y64.1 E0.46423
G1 X136.711 Y64.1 E4.80259
G1 X137.268 Y64.14 E4.86527
G1 X137.813 Y64.259 E4.92789
G1 X138.336 Y64.455 E4.99059
G1 X138.825 Y64.723 E5.05318
G1 X139.469 Y65.242 E5.14603
G1 X139.645 Y65.418 E5.17397
G1 X140.01 Y65.84 E5.2366
G1 X140.312 Y66.31 E5.29931
G1 X140.543 Y66.818 E5.36195
G1 X140.699 Y67.354 E5.42462
G1 X140.787 Y68.176 E5.51742
G1 X140.787 Y76.285 E6.42768
G1 X140.938 Y76.368 E6.44702
G1 X141.582 Y76.887 E6.53986
G1 X141.758 Y77.063 E6.5678
G1 X142.123 Y77.485 E6.63043
G1 X142.425 Y77.955 E6.69315
G1 X142.656 Y78.463 E6.75579
G1 X142.812 Y78.999 E6.81845
G1 X142.9 Y79.821 E6.91125
G1 X142.9 Y94.469 E8.55553
G1 X142.86 Y95.026 E8.61822
G1 X142.741 Y95.571 E8.68084
G1 X142.545 Y96.094 E8.74353
G1 X142.277 Y96.583 E8.80613
G1 X141.758 Y97.227 E8.89897
G1 X141.582 Y97.403 E8.92691
G1 X141.16 Y97.768 E8.98955
G1 X140.787 Y98.008 E9.03933
G1 X140.787 Y136.285 E13.33604
G1 X140.938 Y136.368 E13.35538
G1 X141.582 Y136.887 E13.44823
G1 X141.758 Y137.063 E13.47617
G1 X142.123 Y137.485 E13.5388
G1 X142.425 Y137.955 E13.60151
G1 X142.656 Y138.463 E13.66415
G1 X142.812 Y138.999 E13.72682
G1 X142.9 Y139.821 E13.81962
G1 X142.9 Y154.469 E15.4639
G1 X142.86 Y155.026 E15.52658
G1 X142.741 Y155.571 E15.5892
G1 X142.545 Y156.094 E15.6519
G1 X142.277 Y156.583 E15.71449
G1 X141.758 Y157.227 E15.80734
G1 X141.582 Y157.403 E15.83528
G1 X141.16 Y157.768 E15.89791
G1 X140.787 Y158.008 E15.9477
G1 X140.787 Y166.824 E16.93732
G1 X140.747 Y167.381 E17.00001
G1 X140.628 Y167.926 E17.06263
G1 X140.432 Y168.449 E17.12532
G1 X140.164 Y168.938 E17.18792
G1 X139.645 Y169.582 E17.28076
G1 X139.469 Y169.758 E17.3087
G1 X139.047 Y170.123 E17.37133
G1 X138.577 Y170.425 E17.43404
G1 X138.069 Y170.656 E17.49669
G1 X137.533 Y170.812 E17.55935
G1 X136.711 Y170.9 E17.65215
G1 X98.063 Y170.9 E21.9905
G1 X97.506 Y170.86 E22.05319
G1 X96.961 Y170.741 E22.11581
G1 X96.438 Y170.545 E22.1785
G1 X95.949 Y170.277 E22.2411
G1 X95.305 Y169.758 E22.33394
G1 X95.129 Y169.582 E22.36188
G1 X94.764 Y169.16 E22.42451
G1 X94.462 Y168.69 E22.48723
G1 X94.231 Y168.182 E22.54987
G1 X94.075 Y167.646 E22.61253
G1 X93.987 Y166.824 E22.70533
G1 X93.987 Y157.862 E23.71134
G1 X93.418 Y157.403 E23.79341
G1 X93.242 Y157.227 E23.82135
G1 X92.877 Y156.805 E23.88398
G1 X92.575 Y156.335 E23.94669
G1 X92.344 Y155.827 E24.00933
G1 X92.188 Y155.291 E24.072
G1 X92.1 Y154.469 E24.1648
G1 X92.1 Y139.821 E25.80908
G1 X92.14 Y139.264 E25.87176
G1 X92.259 Y138.719 E25.93438
G1 X92.455 Y138.196 E25.99708
G1 X92.723 Y137.707 E26.05967
G1 X93.242 Y137.063 E26.15252
G1 X93.418 Y136.887 E26.18046
G1 X93.84 Y136.522 E26.24309
G1 X93.987 Y136.428 E26.26268
G1 X93.987 Y97.862 E30.59182
G1 X93.418 Y97.403 E30.67389
G1 X93.242 Y97.227 E30.70183
G1 X92.877 Y96.805 E30.76446
G1 X92.575 Y96.335 E30.82717
G1 X92.344 Y95.827 E30.88981
G1 X92.188 Y95.291 E30.95248
G1 X92.1 Y94.469 E31.04528
G1 X92.1 Y79.821 E32.68956
G1 X92.14 Y79.264 E32.75224
G1 X92.259 Y78.719 E32.81486
G1 X92.455 Y78.196 E32.87756
G1 X92.723 Y77.707 E32.94015
G1 X93.242 Y77.063 E33.033
G1 X93.418 Y76.887 E33.06094
G1 X93.84 Y76.522 E33.12357
G1 X93.987 Y76.428 E33.14316
G1 X93.987 Y68.176 E34.06947
G1 X94.027 Y67.619 E34.13215
G1 X94.146 Y67.074 E34.19477
G1 X94.342 Y66.551 E34.25747
G1 X94.61 Y66.062 E34.32006
G0 F3000 X95.207 Y66.251
G1 F600 X95.554 Y65.843 E34.38019
G1 X95.73 Y65.667 E34.40813
G1 X96.12 Y65.333 E34.46577
G1 X96.557 Y65.064 E34.52337
G1 X97.031 Y64.866 E34.58103
G1 X97.529 Y64.743 E34.63861
G1 X98.063 Y64.7 E34.69875
G1 X136.711 Y64.7 E39.0371
G1 X137.223 Y64.74 E39.09475
G1 X137.722 Y64.859 E39.15234
G1 X138.197 Y65.054 E39.20998
G1 X138.636 Y65.32 E39.2676
G1 X139.044 Y65.667 E39.32772
G1 X139.22 Y65.843 E39.35566
G1 X139.554 Y66.233 E39.4133
G1 X139.823 Y66.67 E39.4709
G1 X140.021 Y67.144 E39.52856
G1 X140.144 Y67.642 E39.58615
G1 X140.187 Y68.176 E39.64628
G1 X140.187 Y76.649 E40.5974
G1 X140.31 Y76.699 E40.61231
G1 X140.749 Y76.965 E40.66993
G1 X141.157 Y77.312 E40.73005
G1 X141.333 Y77.488 E40.75799
G1 X141.667 Y77.878 E40.81563
G1 X141.936 Y78.315 E40.87323
G1 X142.134 Y78.789 E40.9309
G1 X142.257 Y79.287 E40.98848
G1 X142.3 Y79.821 E41.04861
G1 X142.3 Y94.469 E42.6929
G1 X142.26 Y94.981 E42.75054
G1 X142.141 Y95.48 E42.80813
G1 X141.946 Y95.955 E42.86577
G1 X141.68 Y96.394 E42.92339
G1 X141.333 Y96.802 E42.98351
G1 X141.157 Y96.978 E43.01145
G1 X140.767 Y97.312 E43.06909
G1 X140.33 Y97.581 E43.12669
G1 X140.187 Y97.641 E43.1441
G1 X140.187 Y136.649 E47.52286
G1 X140.31 Y136.699 E47.53777
G1 X140.749 Y136.965 E47.59539
G1 X141.157 Y137.312 E47.65551
G1 X141.333 Y137.488 E47.68345
G1 X141.667 Y137.878 E47.74109
G1 X141.936 Y138.315 E47.79869
G1 X142.134 Y138.789 E47.85636
G1 X142.257 Y139.287 E47.91394
G1 X142.3 Y139.821 E47.97408
G1 X142.3 Y154.469 E49.61836
G1 X142.26 Y154.981 E49.67601
G1 X142.141 Y155.48 E49.73359
G1 X141.946 Y155.955 E49.79123
G1 X141.68 Y156.394 E49.84885
G1 X141.333 Y156.802 E49.90897
G1 X141.157 Y156.978 E49.93691
G1 X140.767 Y157.312 E49.99455
G1 X140.33 Y157.581 E50.05215
G1 X140.187 Y157.641 E50.06956
G1 X140.187 Y166.824 E51.10038
G1 X140.147 Y167.336 E51.15803
G1 X140.028 Y167.835 E51.21561
G1 X139.833 Y168.31 E51.27325
G1 X139.567 Y168.749 E51.33087
G1 X139.22 Y169.157 E51.391
G1 X139.044 Y169.333 E51.41894
G1 X138.654 Y169.667 E51.47657
G1 X138.217 Y169.936 E51.53418
G1 X137.743 Y170.134 E51.59184
G1 X137.245 Y170.257 E51.64942
G1 X136.711 Y170.3 E51.70956
G1 X98.063 Y170.3 E56.04791
G1 X97.551 Y170.26 E56.10556
G1 X97.052 Y170.141 E56.16315
G1 X96.577 Y169.946 E56.22078
G1 X96.138 Y169.68 E56.2784
G1 X95.73 Y169.333 E56.33853
G1 X95.554 Y169.157 E56.36647
G1 X95.22 Y168.767 E56.42411
G1 X94.951 Y168.33 E56.48171
G1 X94.753 Y167.856 E56.53937
G1 X94.63 Y167.358 E56.59695
G1 X94.587 Y166.824 E56.65709
G1 X94.587 Y157.529 E57.70048
G1 X94.251 Y157.325 E57.74461
G1 X93.843 Y156.978 E57.80473
G1 X93.667 Y156.802 E57.83267
G1 X93.333 Y156.412 E57.89031
G1 X93.064 Y155.975 E57.94791
G1 X92.866 Y155.501 E58.00558
G1 X92.743 Y155.003 E58.06316
G1 X92.7 Y154.469 E58.1233
G1 X92.7 Y139.821 E59.76758
G1 X92.74 Y139.309 E59.82523
G1 X92.859 Y138.81 E59.88281
G1 X93.054 Y138.335 E59.94045
G1 X93.32 Y137.896 E59.99807
G1 X93.667 Y137.488 E60.05819
G1 X93.843 Y137.312 E60.08613
G1 X94.233 Y136.978 E60.14377
G1 X94.587 Y136.76 E60.19044
G1 X94.587 Y97.529 E64.59423
G1 X94.251 Y97.325 E64.63836
G1 X93.843 Y96.978 E64.69848
G1 X93.667 Y96.802 E64.72642
G1 X93.333 Y96.412 E64.78406
G1 X93.064 Y95.975 E64.84166
G1 X92.866 Y95.501 E64.89933
G1 X92.743 Y95.003 E64.95691
G1 X92.7 Y94.469 E65.01705
G1 X92.7 Y79.821 E66.66133
G1 X92.74 Y79.309 E66.71898
G1 X92.859 Y78.81 E66.77656
G1 X93.054 Y78.335 E66.8342
G1 X93.32 Y77.896 E66.89182
G1 X93.667 Y77.488 E66.95194
G1 X93.843 Y77.312 E66.97988
G1 X94.233 Y76.978 E67.03752
G1 X94.587 Y76.76 E67.08419
G1 X94.587 Y68.176 E68.04777
G1 X94.627 Y67.664 E68.10542
G1 X94.746 Y67.165 E68.163
G1 X94.941 Y66.69 E68.22064
G1 X95.207 Y66.251 E68.27826
G0 F3000 X95.539 Y66.842
G1 F600 X95.802 Y66.46 E68.33032
G1 X95.978 Y66.267 E68.35964
G1 X96.154 Y66.091 E68.38758
G1 X96.509 Y65.792 E68.43968
G1 X96.91 Y65.558 E68.4918
G1 X97.346 Y65.397 E68.54397
G1 X97.802 Y65.313 E68.59602
G1 X98.063 Y65.3 E68.62536
G1 X136.711 Y65.3 E72.96371
G1 X137.174 Y65.34 E73.01587
G1 X137.623 Y65.459 E73.06802
G1 X138.045 Y65.652 E73.12011
G1 X138.427 Y65.915 E73.17217
G1 X138.62 Y66.091 E73.20149
G1 X138.796 Y66.267 E73.22943
G1 X139.095 Y66.622 E73.28153
G1 X139.329 Y67.023 E73.33365
G1 X139.49 Y67.459 E73.38582
G1 X139.574 Y67.915 E73.43787
G1 X139.587 Y68.176 E73.4672
G1 X139.587 Y77.065 E74.46502
G1 X139.736 Y77.104 E74.48231
G1 X140.158 Y77.297 E74.5344
G1 X140.54 Y77.56 E74.58646
G1 X140.733 Y77.736 E74.61578
G1 X140.909 Y77.912 E74.64372
G1 X141.208 Y78.267 E74.69582
G1 X141.442 Y78.668 E74.74794
G1 X141.603 Y79.104 E74.80011
G1 X141.687 Y79.56 E74.85216
G1 X141.7 Y79.821 E74.88149
G1 X141.7 Y94.469 E76.52577
G1 X141.66 Y94.932 E76.57794
G1 X141.541 Y95.381 E76.63008
G1 X141.348 Y95.803 E76.68217
G1 X141.085 Y96.185 E76.73423
G1 X140.909 Y96.378 E76.76355
G1 X140.733 Y96.554 E76.79149
G1 X140.378 Y96.853 E76.84359
G1 X139.977 Y97.087 E76.89571
G1 X139.587 Y97.231 E76.94238
G1 X139.587 Y137.065 E81.41386
G1 X139.736 Y137.104 E81.43115
G1 X140.158 Y137.297 E81.48324
G1 X140.54 Y137.56 E81.5353
G1 X140.733 Y137.736 E81.56462
G1 X140.909 Y137.912 E81.59256
G1 X141.208 Y138.267 E81.64466
G1 X141.442 Y138.668 E81.69678
G1 X141.603 Y139.104 E81.74895
G1 X141.687 Y139.56 E81.801
G1 X141.7 Y139.821 E81.83033
G1 X141.7 Y154.469 E83.47462
G1 X141.66 Y154.932 E83.52678
G1 X141.541 Y155.381 E83.57892
G1 X141.348 Y155.803 E83.63101
G1 X141.085 Y156.185 E83.68308
G1 X140.909 Y156.378 E83.7124
G1 X140.733 Y156.554 E83.74034
G1 X140.378 Y156.853 E83.79244
G1 X139.977 Y157.087 E83.84455
G1 X139.587 Y157.231 E83.89122
G1 X139.587 Y166.824 E84.96806
G1 X139.547 Y167.287 E85.02023
G1 X139.428 Y167.736 E85.07237
G1 X139.235 Y168.158 E85.12446
G1 X138.972 Y168.54 E85.17652
G1 X138.796 Y168.733 E85.20584
G1 X138.62 Y168.909 E85.23378
G1 X138.265 Y169.208 E85.28588
G1 X137.864 Y169.442 E85.338
G1 X137.428 Y169.603 E85.39017
G1 X136.972 Y169.687 E85.44222
G1 X136.711 Y169.7 E85.47156
G1 X98.063 Y169.7 E89.80991
G1 X97.6 Y169.66 E89.86208
G1 X97.151 Y169.541 E89.91422
G1 X96.729 Y169.348 E89.96631
G1 X96.347 Y169.085 E90.01837
G1 X96.154 Y168.909 E90.04769
G1 X95.978 Y168.733 E90.07563
G1 X95.679 Y168.378 E90.12773
G1 X95.445 Y167.977 E90.17985
G1 X95.284 Y167.541 E90.23202
G1 X95.2 Y167.085 E90.28407
G1 X95.187 Y166.824 E90.3134
G1 X95.187 Y157.151 E91.39922
G1 X94.842 Y156.993 E91.44182
G1 X94.46 Y156.73 E91.49388
G1 X94.267 Y156.554 E91.5232
G1 X94.091 Y156.378 E91.55114
G1 X93.792 Y156.023 E91.60324
G1 X93.558 Y155.622 E91.65536
G1 X93.397 Y155.186 E91.70753
G1 X93.313 Y154.73 E91.75958
G1 X93.3 Y154.469 E91.78891
G1 X93.3 Y139.821 E93.4332
G1 X93.34 Y139.358 E93.48536
G1 X93.459 Y138.909 E93.5375
G1 X93.652 Y138.487 E93.58959
G1 X93.915 Y138.105 E93.64165
G1 X94.091 Y137.912 E93.67098
G1 X94.267 Y137.736 E93.69892
G1 X94.622 Y137.437 E93.75102
G1 X95.023 Y137.203 E93.80313
G1 X95.187 Y137.142 E93.82277
G1 X95.187 Y97.151 E98.31188
G1 X94.842 Y96.993 E98.35448
G1 X94.46 Y96.73 E98.40654
G1 X94.267 Y96.554 E98.43586
G1 X94.091 Y96.378 E98.4638
G1 X93.792 Y96.023 E98.5159
G1 X93.558 Y95.622 E98.56802
G1 X93.397 Y95.186 E98.62019
G1 X93.313 Y94.73 E98.67224
G1 X93.3 Y94.469 E98.70157
G1 X93.3 Y79.821 E100.34585
G1 X93.34 Y79.358 E100.39802
G1 X93.459 Y78.909 E100.45016
G1 X93.652 Y78.487 E100.50225
G1 X93.915 Y78.105 E100.55431
G1 X94.091 Y77.912 E100.58363
G1 X94.267 Y77.736 E100.61157
G1 X94.622 Y77.437 E100.66367
G1 X95.023 Y77.203 E100.71579
G1 X95.187 Y77.142 E100.73543
G1 X95.187 Y68.176 E101.74189
G1 X95.227 Y67.713 E101.79406
G1 X95.346 Y67.264 E101.8462
G1 X95.539 Y66.842 E101.89829
G0 F3000 X96.137 Y67.015
G1 F600 X96.402 Y66.691 E101.94528
G1 X96.578 Y66.515 E101.97322
G1 X96.894 Y66.255 E102.01915
G1 X97.255 Y66.062 E102.0651
G1 X97.647 Y65.942 E102.11112
G1 X98.063 Y65.9 E102.15806
G1 X136.711 Y65.9 E106.49641
G1 X137.118 Y65.94 E106.54232
G1 X137.51 Y66.058 E106.58827
G1 X137.872 Y66.25 E106.63427
G1 X138.196 Y66.515 E106.68125
G1 X138.372 Y66.691 E106.70919
G1 X138.632 Y67.007 E106.75513
G1 X138.825 Y67.368 E106.80108
G1 X138.945 Y67.76 E106.8471
G1 X138.987 Y68.176 E106.89403
G1 X138.987 Y77.561 E107.94753
G1 X139.231 Y77.585 E107.97505
G1 X139.623 Y77.703 E108.021
G1 X139.985 Y77.895 E108.067
G1 X140.309 Y78.16 E108.11399
G1 X140.485 Y78.336 E108.14193
G1 X140.745 Y78.652 E108.18786
G1 X140.938 Y79.013 E108.23381
G1 X141.058 Y79.405 E108.27983
G1 X141.1 Y79.821 E108.32677
G1 X141.1 Y94.469 E109.97105
G1 X141.06 Y94.876 E110.01695
G1 X140.942 Y95.268 E110.06291
G1 X140.75 Y95.63 E110.1089
G1 X140.485 Y95.954 E110.15589
G1 X140.309 Y96.13 E110.18383
G1 X139.993 Y96.39 E110.22977
G1 X139.632 Y96.583 E110.27572
G1 X139.24 Y96.703 E110.32174
G1 X138.987 Y96.729 E110.35029
G1 X138.987 Y137.561 E114.9338
G1 X139.231 Y137.585 E114.96132
G1 X139.623 Y137.703 E115.00727
G1 X139.985 Y137.895 E115.05327
G1 X140.309 Y138.16 E115.10026
G1 X140.485 Y138.336 E115.1282
G1 X140.745 Y138.652 E115.17413
G1 X140.938 Y139.013 E115.22008
G1 X141.058 Y139.405 E115.2661
G1 X141.1 Y139.821 E115.31304
G1 X141.1 Y154.469 E116.95732
G1 X141.06 Y154.876 E117.00323
G1 X140.942 Y155.268 E117.04918
G1 X140.75 Y155.63 E117.09518
G1 X140.485 Y155.954 E117.14216
G1 X140.309 Y156.13 E117.1701
G1 X139.993 Y156.39 E117.21604
G1 X139.632 Y156.583 E117.26199
G1 X139.24 Y156.703 E117.30801
G1 X138.987 Y156.729 E117.33656
G1 X138.987 Y166.824 E118.46975
G1 X138.947 Y167.231 E118.51566
G1 X138.829 Y167.623 E118.56161
G1 X138.637 Y167.985 E118.60761
G1 X138.372 Y168.309 E118.65459
G1 X138.196 Y168.485 E118.68253
G1 X137.88 Y168.745 E118.72847
G1 X137.519 Y168.938 E118.77442
G1 X137.127 Y169.058 E118.82044
G1 X136.711 Y169.1 E118.86737
G1 X98.063 Y169.1 E123.20573
G1 X97.656 Y169.06 E123.25163
G1 X97.264 Y168.942 E123.29759
G1 X96.902 Y168.75 E123.34358
G1 X96.578 Y168.485 E123.39057
G1 X96.402 Y168.309 E123.41851
G1 X96.142 Y167.993 E123.46445
G1 X95.949 Y167.632 E123.5104
G1 X95.829 Y167.24 E123.55642
G1 X95.787 Y166.824 E123.60335
G1 X95.787 Y156.707 E124.73901
G1 X95.769 Y156.705 E124.74105
G1 X95.377 Y156.587 E124.787
G1 X95.015 Y156.395 E124.833
G1 X94.691 Y156.13 E124.87998
G1 X94.515 Y155.954 E124.90792
G1 X94.255 Y155.638 E124.95386
G1 X94.062 Y155.277 E124.99981
G1 X93.942 Y154.885 E125.04583
G1 X93.9 Y154.469 E125.09276
G1 X93.9 Y139.821 E126.73704
G1 X93.94 Y139.414 E126.78295
G1 X94.058 Y139.022 E126.8289
G1 X94.25 Y138.66 E126.8749
G1 X94.515 Y138.336 E126.92189
G1 X94.691 Y138.16 E126.94983
G1 X95.007 Y137.9 E126.99576
G1 X95.368 Y137.707 E127.04171
G1 X95.76 Y137.587 E127.08773
G1 X95.787 Y137.584 E127.09078
G1 X95.787 Y96.707 E131.67935
G1 X95.769 Y96.705 E131.68138
G1 X95.377 Y96.587 E131.72733
G1 X95.015 Y96.395 E131.77333
G1 X94.691 Y96.13 E131.82032
G1 X94.515 Y95.954 E131.84826
G1 X94.255 Y95.638 E131.89419
G1 X94.062 Y95.277 E131.94014
G1 X93.942 Y94.885 E131.98616
G1 X93.9 Y94.469 E132.0331
G1 X93.9 Y79.821 E133.67738
G1 X93.94 Y79.414 E133.72328
G1 X94.058 Y79.022 E133.76924
G1 X94.25 Y78.66 E133.81524
G1 X94.515 Y78.336 E133.86222
G1 X94.691 Y78.16 E133.89016
G1 X95.007 Y77.9 E133.9361
G1 X95.368 Y77.707 E133.98205
G1 X95.76 Y77.587 E134.02807
G1 X95.787 Y77.584 E134.03112
G1 X95.787 Y68.176 E135.08719
G1 X95.827 Y67.769 E135.1331
G1 X95.945 Y67.377 E135.17905
G1 X96.137 Y67.015 E135.22505
G0 F3000 X96.544 Y67.507
G1 F600 X96.826 Y67.115 E135.27926
G1 X97.002 Y66.939 E135.3072
G1 X97.273 Y66.725 E135.34596
G1 X97.587 Y66.578 E135.38488
G1 X98.063 Y66.5 E135.43902
G1 X136.711 Y66.5 E139.77737
G1 X137.055 Y66.54 E139.81625
G1 X137.38 Y66.657 E139.85502
G1 X137.772 Y66.939 E139.90923
G1 X137.948 Y67.115 E139.93717
G1 X138.162 Y67.386 E139.97593
G1 X138.309 Y67.7 E140.01485
G1 X138.387 Y68.176 E140.069
G1 X138.387 Y78.145 E141.18805
G1 X138.824 Y78.145 E141.2371
G1 X139.168 Y78.185 E141.27598
G1 X139.493 Y78.302 E141.31475
G1 X139.885 Y78.584 E141.36896
G1 X140.061 Y78.76 E141.3969
G1 X140.275 Y79.031 E141.43566
G1 X140.422 Y79.345 E141.47458
G1 X140.5 Y79.821 E141.52872
G1 X140.5 Y94.469 E143.173
G1 X140.46 Y94.813 E143.21188
